(/Applications/EAGLE-6.4.0/ulp/pcb-gcode.ulp)
(Copyright 2005 - 2012 by John Johnson)
(See readme.txt for licensing terms.)
(This file generated from the board:)
(.../eagle/lowNoisePre/lowNoisePre2.brd)
(Current profile is .../EAGLE-6.4.0/ulp/profiles/mach.pp  )
(This file generated 26/06/2013 13:44)
(Settings from pcb-machine.h)
(  Tool Size)
(0.1778  )
(Z Axis Settings)
(  High     Up        Down     Drill)
(12.7000 	2.5400  	-0.1778 	-0.8128 )
(spindle on time = 3.0000)
(milling depth = 0.0025)
(text depth = -0.1270)
(tool change at 12.7000 15.2400 25.4000 )
(feed rate xy = F508   )
(feed rate z  = F254   )
(Settings from pcb-defaults.h)
(isolate min = 0.0025)
(isolate max = 0.0100)
(isolate step = 0.1800)
(Generated bottom outlines, bottom drill, )
(Unit of measure: mm)
( Tool|       Size       |  Min Sub |  Max Sub |   Count )
( T01 | 0.813mm 0.0320in | 0.0000in | 0.0000in |       0 )
( T02 | 1.016mm 0.0400in | 0.0000in | 0.0000in |       0 )
( T03 | 1.200mm 0.0472in | 0.0000in | 0.0000in |       0 )
(Metric Mode)
G21
(Absolute Coordinates)
G90
M05
G00 Z25.4000 
G00 X12.7000 Y15.2400 
M06 T01  ; 0.8128  
G01 Z0.0000  F254   
M06 T01  ; 0.8128  
G00 Z2.5400  
M03
G04 P3.000000
G82 X-34.2900 Y49.5300 Z-0.8128 F254   R2.5400  P1.000000
G82 X-34.2900 Y58.4200 
G82 X-34.2900 Y16.5100 
G82 X-34.2900 Y25.4000 
G82 X-36.8300 Y49.5300 
G82 X-36.8300 Y58.4200 
G82 X-36.8300 Y16.5100 
G82 X-36.8300 Y25.4000 
G82 X-38.1000 Y33.0200 
G82 X-38.1000 Y43.1800 
G82 X-39.3700 Y49.5300 
G82 X-39.3700 Y58.4200 
G82 X-39.3700 Y16.5100 
G82 X-39.3700 Y25.4000 
G82 X-44.4500 Y48.2600 
G82 X-44.4500 Y58.4200 
G82 X-44.4500 Y15.2400 
G82 X-44.4500 Y25.4000 
G82 X-48.2600 Y33.0200 
G82 X-48.2600 Y43.1800 
G82 X-49.5300 Y48.2600 
G82 X-49.5300 Y58.4200 
G82 X-49.5300 Y15.2400 
G82 X-49.5300 Y25.4000 
G82 X-55.8800 Y45.7200 
G82 X-55.8800 Y60.9600 
G82 X-55.8800 Y12.7000 
G82 X-55.8800 Y27.9400 
G82 X-62.2300 Y49.5300 
G82 X-62.2300 Y59.6900 
G82 X-62.2300 Y15.2400 
G82 X-62.2300 Y25.4000 
G82 X-67.3100 Y38.1000 
G82 X-67.3100 Y17.7800 
G82 X-67.3100 Y27.9400 
G82 X-68.5800 Y44.4500 
G82 X-68.5800 Y46.9900 
G82 X-68.5800 Y49.5300 
G82 X-68.5800 Y52.0700 
G82 X-72.3900 Y55.8800 
G82 X-72.3900 Y60.9600 
G82 X-7.6200 Y49.5300 
G82 X-7.6200 Y24.1300 
G82 X-76.2000 Y44.4500 
G82 X-76.2000 Y46.9900 
G82 X-76.2000 Y49.5300 
G82 X-76.2000 Y52.0700 
G82 X-77.4700 Y38.1000 
G82 X-77.4700 Y17.7800 
G82 X-77.4700 Y27.9400 
G82 X-17.7800 Y49.5300 
G82 X-17.7800 Y24.1300 
G82 X-29.2100 Y34.2900 
G82 X-29.2100 Y39.3700 
G82 X-29.2100 Y49.5300 
G82 X-29.2100 Y24.1300 
M05
G00 Z25.4000 
M06 T02  ; 1.0160  
G01 Z0.0000  F254   
M06 T02  ; 1.0160  
G00 Z2.5400  
M03
G04 P3.000000
G82 X-83.8200 Y55.8800 Z-0.8128 F254   R2.5400  P1.000000
G82 X-83.8200 Y20.3200 
G82 X-87.6300 Y30.4800 
G82 X-88.9000 Y55.8800 
G82 X-88.9000 Y20.3200 
G82 X-20.3200 Y58.4200 
G82 X-25.4000 Y58.4200 
M05
G00 Z25.4000 
M06 T03  ; 1.2000  
G01 Z0.0000  F254   
M06 T03  ; 1.2000  
G00 Z2.5400  
M03
G04 P3.000000
G82 X-87.6300 Y38.1000 Z-0.8128 F254   R2.5400  P1.000000
G82 X-87.6300 Y41.6000 
G82 X-87.6300 Y45.1000 
G82 X-17.7800 Y31.8300 
G82 X-17.7800 Y36.8300 
G82 X-17.7800 Y41.8300 
G82 X-20.3200 Y16.5100 
G82 X-23.8200 Y16.5100 
G82 X-27.3200 Y16.5100 
T01 
G00 Z12.7000 
M05
M02
