(/Applications/EAGLE-6.4.0/ulp/pcb-gcode.ulp)
(Copyright 2005 - 2012 by John Johnson)
(See readme.txt for licensing terms.)
(This file generated from the board:)
(.../eagle/lowNoisePre/lowNoisePre2.brd)
(Current profile is .../EAGLE-6.4.0/ulp/profiles/mach.pp  )
(This file generated 26/06/2013 13:44)
(Settings from pcb-machine.h)
(  Tool Size)
(0.1778  )
(Z Axis Settings)
(  High     Up        Down     Drill)
(12.7000 	2.5400  	-0.1778 	-0.8128 )
(spindle on time = 3.0000)
(milling depth = 0.0025)
(text depth = -0.1270)
(tool change at 12.7000 15.2400 25.4000 )
(feed rate xy = F508   )
(feed rate z  = F254   )
(Settings from pcb-defaults.h)
(isolate min = 0.0025)
(isolate max = 0.0100)
(isolate step = 0.1800)
(Generated bottom outlines, bottom drill, )
(Unit of measure: mm)
(Metric Mode)
G21
(Absolute Coordinates)
G90
G00 X0.0000  Y0.0000  
M03
G04 P3.000000
G00 Z2.5400  
G00 X-87.5406 Y56.3415 
G01 Z-0.1778 F254   
G01 X-87.6124 Y56.5150 F508   
G01 X-87.7063 Y56.6776 
G01 X-87.8206 Y56.8266 
G01 X-87.9534 Y56.9594 
G01 X-88.1024 Y57.0737 
G01 X-88.2650 Y57.1676 
G01 X-88.4385 Y57.2394 
G01 X-88.5546 Y57.2705 
G01 X-88.5546 Y57.1993 
G01 X-88.3774 Y57.1417 
G01 X-88.1864 Y57.0444 
G01 X-88.0131 Y56.9184 
G01 X-87.8616 Y56.7669 
G01 X-87.7356 Y56.5936 
G01 X-87.6383 Y56.4026 
G01 X-87.5807 Y56.2254 
G01 X-87.5095 Y56.2254 
G01 X-87.5406 Y56.3415 
G00 Z2.5400  
G00 X-89.6976 Y57.0737 
G01 Z-0.1778 F254   
G01 X-89.8466 Y56.9594 F508   
G01 X-89.9794 Y56.8266 
G01 X-90.0937 Y56.6776 
G01 X-90.1876 Y56.5150 
G01 X-90.2594 Y56.3415 
G01 X-90.2905 Y56.2254 
G01 X-90.2193 Y56.2254 
G01 X-90.1617 Y56.4026 
G01 X-90.0644 Y56.5936 
G01 X-89.9384 Y56.7669 
G01 X-89.7869 Y56.9184 
G01 X-89.6136 Y57.0444 
G01 X-89.4226 Y57.1417 
G01 X-89.2454 Y57.1993 
G01 X-89.2454 Y57.2705 
G01 X-89.3615 Y57.2394 
G01 X-89.5350 Y57.1676 
G01 X-89.6976 Y57.0737 
G00 Z2.5400  
G00 X-90.2594 Y55.4185 
G01 Z-0.1778 F254   
G01 X-90.2000 Y55.2750 F508   
G01 X-90.1468 Y55.3282 
G01 X-90.1617 Y55.3574 
G01 X-90.2193 Y55.5346 
G01 X-90.2905 Y55.5346 
G01 X-90.2594 Y55.4185 
G00 Z2.5400  
G00 X-89.2454 Y54.5607 
G01 Z-0.1778 F254   
G01 X-89.4226 Y54.6183 F508   
G01 X-89.4518 Y54.6332 
G01 X-89.5050 Y54.5800 
G01 X-89.3615 Y54.5206 
G01 X-89.2454 Y54.4895 
G01 X-89.2454 Y54.5607 
G00 Z2.5400  
G00 X-88.4385 Y54.5206 
G01 Z-0.1778 F254   
G01 X-88.2650 Y54.5924 F508   
G01 X-88.1024 Y54.6863 
G01 X-87.9534 Y54.8006 
G01 X-87.8206 Y54.9334 
G01 X-87.7063 Y55.0824 
G01 X-87.6124 Y55.2450 
G01 X-87.5406 Y55.4185 
G01 X-87.5095 Y55.5346 
G01 X-87.5807 Y55.5346 
G01 X-87.6383 Y55.3574 
G01 X-87.7356 Y55.1664 
G01 X-87.8616 Y54.9931 
G01 X-88.0131 Y54.8416 
G01 X-88.1864 Y54.7156 
G01 X-88.3774 Y54.6183 
G01 X-88.5546 Y54.5607 
G01 X-88.5546 Y54.4895 
G01 X-88.4385 Y54.5206 
G00 Z2.5400  
G00 X-19.8790 Y15.2108 
G01 Z-0.1778 F254   
G01 X-19.7132 Y15.2795 F508   
G01 X-19.5578 Y15.3692 
G01 X-19.4154 Y15.4785 
G01 X-19.2885 Y15.6054 
G01 X-19.1792 Y15.7478 
G01 X-19.0895 Y15.9032 
G01 X-19.0208 Y16.0690 
G01 X-19.0075 Y16.1186 
G01 X-19.0825 Y16.1186 
G01 X-19.1172 Y16.0118 
G01 X-19.2099 Y15.8297 
G01 X-19.3300 Y15.6644 
G01 X-19.4744 Y15.5200 
G01 X-19.6397 Y15.3999 
G01 X-19.8218 Y15.3072 
G01 X-19.9286 Y15.2725 
G01 X-19.9286 Y15.1975 
G01 X-19.8790 Y15.2108 
G00 Z2.5400  
G00 X-20.7114 Y15.2725 
G01 Z-0.1778 F254   
G01 X-20.8182 Y15.3072 F508   
G01 X-20.8246 Y15.3104 
G01 X-20.8764 Y15.2586 
G01 X-20.7610 Y15.2108 
G01 X-20.7114 Y15.1975 
G01 X-20.7114 Y15.2725 
G00 Z2.5400  
G00 X-19.0208 Y16.9510 
G01 Z-0.1778 F254   
G01 X-19.0895 Y17.1168 F508   
G01 X-19.1792 Y17.2722 
G01 X-19.2885 Y17.4146 
G01 X-19.4154 Y17.5415 
G01 X-19.5578 Y17.6508 
G01 X-19.7132 Y17.7405 
G01 X-19.8790 Y17.8092 
G01 X-19.9286 Y17.8225 
G01 X-19.9286 Y17.7475 
G01 X-19.8218 Y17.7128 
G01 X-19.6397 Y17.6201 
G01 X-19.4744 Y17.5000 
G01 X-19.3300 Y17.3556 
G01 X-19.2099 Y17.1903 
G01 X-19.1172 Y17.0082 
G01 X-19.0825 Y16.9014 
G01 X-19.0075 Y16.9014 
G01 X-19.0208 Y16.9510 
G00 Z2.5400  
G00 X-16.5435 Y20.7354 
G01 Z-0.1778 F254   
G01 X-16.1361 Y20.9042 F508   
G01 X-12.8481 Y24.1922 
G01 X-12.5222 Y24.5181 
G01 X-12.3534 Y24.9255 
G01 X-12.3534 Y56.3412 
G01 X-12.3334 Y56.4161 
G01 X-12.2946 Y56.4833 
G01 X-12.2397 Y56.5382 
G01 X-12.1725 Y56.5769 
G01 X-12.0976 Y56.5970 
G01 X-12.0200 Y56.5970 
G01 X-11.9451 Y56.5769 
G01 X-11.8779 Y56.5382 
G01 X-11.8230 Y56.4833 
G01 X-9.0414 Y53.7017 
G01 X-9.0026 Y53.6345 
G01 X-8.9826 Y53.5596 
G01 X-8.9826 Y50.6760 
G01 X-9.0026 Y50.6011 
G01 X-9.0414 Y50.5339 
G01 X-9.0739 Y50.5014 
G01 X-9.3350 Y49.8711 
G01 X-9.3350 Y49.1889 
G01 X-9.0739 Y48.5586 
G01 X-8.7874 Y48.2721 
G01 X-8.7486 Y48.2049 
G01 X-8.7286 Y48.1300 
G01 X-8.7286 Y25.5300 
G01 X-8.7486 Y25.4551 
G01 X-8.7874 Y25.3879 
G01 X-8.8423 Y25.3330 
G01 X-9.0739 Y25.1014 
G01 X-9.3350 Y24.4711 
G01 X-9.3350 Y23.7889 
G01 X-9.0739 Y23.1586 
G01 X-8.5914 Y22.6761 
G01 X-7.9611 Y22.4150 
G01 X-7.2789 Y22.4150 
G01 X-6.6486 Y22.6761 
G01 X-6.1661 Y23.1586 
G01 X-5.9050 Y23.7889 
G01 X-5.9050 Y24.4711 
G01 X-6.1661 Y25.1014 
G01 X-6.4526 Y25.3879 
G01 X-6.4914 Y25.4551 
G01 X-6.5114 Y25.5300 
G01 X-6.5114 Y48.1300 
G01 X-6.4914 Y48.2049 
G01 X-6.4526 Y48.2721 
G01 X-6.3977 Y48.3270 
G01 X-6.1661 Y48.5586 
G01 X-5.9050 Y49.1889 
G01 X-5.9050 Y49.8711 
G01 X-6.1661 Y50.5014 
G01 X-6.7066 Y51.0419 
G01 X-6.7454 Y51.1091 
G01 X-6.7654 Y51.1840 
G01 X-6.7654 Y54.3225 
G01 X-6.9342 Y54.7299 
G01 X-17.8422 Y65.6379 
G01 X-18.1681 Y65.9638 
G01 X-18.5755 Y66.1326 
G01 X-68.5465 Y66.1326 
G01 X-68.9539 Y65.9638 
G01 X-72.1839 Y62.7338 
G01 X-72.2511 Y62.6950 
G01 X-72.3260 Y62.6750 
G01 X-72.7311 Y62.6750 
G01 X-73.3614 Y62.4139 
G01 X-73.6479 Y62.1274 
G01 X-73.7151 Y62.0886 
G01 X-73.7900 Y62.0686 
G01 X-78.9605 Y62.0686 
G01 X-79.3679 Y61.8998 
G01 X-83.3503 Y57.9174 
G01 X-83.4175 Y57.8786 
G01 X-83.4924 Y57.8586 
G01 X-84.2136 Y57.8586 
G01 X-84.9408 Y57.5573 
G01 X-85.4973 Y57.0008 
G01 X-85.7986 Y56.2736 
G01 X-85.7986 Y55.4864 
G01 X-85.4973 Y54.7592 
G01 X-84.9408 Y54.2027 
G01 X-84.2136 Y53.9014 
G01 X-83.4264 Y53.9014 
G01 X-83.2548 Y53.9726 
G01 X-83.2379 Y53.9823 
G01 X-83.2191 Y53.9873 
G01 X-83.2011 Y53.9948 
G01 X-83.1818 Y53.9973 
G01 X-83.1629 Y54.0024 
G01 X-83.1435 Y54.0024 
G01 X-83.1242 Y54.0049 
G01 X-83.1048 Y54.0024 
G01 X-83.0854 Y54.0024 
G01 X-83.0665 Y53.9973 
G01 X-83.0472 Y53.9948 
G01 X-83.0293 Y53.9873 
G01 X-83.0104 Y53.9823 
G01 X-82.9936 Y53.9726 
G01 X-82.9756 Y53.9651 
G01 X-82.9601 Y53.9532 
G01 X-82.9432 Y53.9435 
G01 X-82.9295 Y53.9297 
G01 X-82.9140 Y53.9179 
G01 X-82.9022 Y53.9024 
G01 X-81.9405 Y52.9408 
G01 X-81.9021 Y52.9024 
G01 X-81.8856 Y52.8859 
G01 X-81.8469 Y52.8187 
G01 X-81.8268 Y52.7438 
G01 X-81.8268 Y52.6662 
G01 X-81.8469 Y52.5913 
G01 X-81.8856 Y52.5241 
G01 X-81.9405 Y52.4692 
G01 X-87.3358 Y47.0739 
G01 X-87.4030 Y47.0351 
G01 X-87.4779 Y47.0151 
G01 X-88.0109 Y47.0151 
G01 X-88.7148 Y46.7235 
G01 X-89.2535 Y46.1848 
G01 X-89.5451 Y45.4809 
G01 X-89.5451 Y44.7191 
G01 X-89.2535 Y44.0152 
G01 X-88.7692 Y43.5309 
G01 X-88.7304 Y43.4637 
G01 X-88.7103 Y43.3888 
G01 X-88.7103 Y43.3112 
G01 X-88.7112 Y43.3080 
G01 X-88.7304 Y43.2363 
G01 X-88.7684 Y43.1706 
G01 X-88.8241 Y43.1142 
G01 X-89.2535 Y42.6848 
G01 X-89.5451 Y41.9809 
G01 X-89.5451 Y41.2191 
G01 X-89.2535 Y40.5152 
G01 X-88.7148 Y39.9765 
G01 X-88.3548 Y39.8274 
G01 X-88.3360 Y39.8223 
G01 X-88.3192 Y39.8126 
G01 X-88.3012 Y39.8052 
G01 X-88.2857 Y39.7933 
G01 X-88.2688 Y39.7836 
G01 X-88.2551 Y39.7698 
G01 X-88.2396 Y39.7579 
G01 X-88.2277 Y39.7425 
G01 X-88.2140 Y39.7287 
G01 X-88.2042 Y39.7118 
G01 X-88.1924 Y39.6964 
G01 X-88.1849 Y39.6784 
G01 X-88.1752 Y39.6615 
G01 X-88.1701 Y39.6427 
G01 X-88.1627 Y39.6247 
G01 X-88.1601 Y39.6054 
G01 X-88.1551 Y39.5866 
G01 X-88.1551 Y39.5671 
G01 X-88.1526 Y39.5478 
G01 X-88.1551 Y39.5285 
G01 X-88.1551 Y39.5090 
G01 X-88.1602 Y39.4902 
G01 X-88.1627 Y39.4709 
G01 X-88.1701 Y39.4529 
G01 X-88.1752 Y39.4341 
G01 X-88.1849 Y39.4172 
G01 X-88.1924 Y39.3992 
G01 X-88.2042 Y39.3837 
G01 X-88.2095 Y39.3745 
G01 X-88.1346 Y39.2996 
G01 X-88.1282 Y39.3028 
G01 X-87.9339 Y39.3660 
G01 X-87.7322 Y39.3979 
G01 X-87.5278 Y39.3979 
G01 X-87.3261 Y39.3660 
G01 X-87.1318 Y39.3028 
G01 X-86.9497 Y39.2101 
G01 X-86.7844 Y39.0900 
G01 X-86.6400 Y38.9456 
G01 X-86.5199 Y38.7803 
G01 X-86.4271 Y38.5982 
G01 X-86.3640 Y38.4039 
G01 X-86.3321 Y38.2022 
G01 X-86.3321 Y37.9978 
G01 X-86.3640 Y37.7961 
G01 X-86.4271 Y37.6018 
G01 X-86.5199 Y37.4197 
G01 X-86.6400 Y37.2544 
G01 X-86.7844 Y37.1100 
G01 X-86.9497 Y36.9899 
G01 X-87.1318 Y36.8972 
G01 X-87.2386 Y36.8625 
G01 X-87.2386 Y36.7875 
G01 X-87.1890 Y36.8008 
G01 X-87.0232 Y36.8695 
G01 X-86.8678 Y36.9592 
G01 X-86.7254 Y37.0685 
G01 X-86.7054 Y37.0885 
G01 X-86.6741 Y37.1197 
G01 X-86.6444 Y37.1369 
G01 X-86.6069 Y37.1585 
G01 X-86.5382 Y37.1769 
G01 X-86.5320 Y37.1786 
G01 X-86.4936 Y37.1786 
G01 X-86.4544 Y37.1786 
G01 X-86.4375 Y37.1741 
G01 X-86.3795 Y37.1585 
G01 X-86.3312 Y37.1306 
G01 X-86.3123 Y37.1198 
G01 X-86.2853 Y37.0928 
G01 X-86.2574 Y37.0649 
G01 X-86.2403 Y37.0352 
G01 X-86.2186 Y36.9977 
G01 X-86.2002 Y36.9290 
G01 X-86.1986 Y36.9228 
G01 X-86.1986 Y36.8844 
G01 X-86.1986 Y36.8452 
G01 X-86.1986 Y32.3136 
G01 X-86.1960 Y32.2943 
G01 X-86.1986 Y32.2749 
G01 X-86.1986 Y32.2555 
G01 X-86.2036 Y32.2367 
G01 X-86.2061 Y32.2173 
G01 X-86.2136 Y32.1994 
G01 X-86.2186 Y32.1805 
G01 X-86.2284 Y32.1637 
G01 X-86.2358 Y32.1457 
G01 X-86.2477 Y32.1302 
G01 X-86.2574 Y32.1134 
G01 X-86.2712 Y32.0996 
G01 X-86.2831 Y32.0841 
G01 X-86.2985 Y32.0723 
G01 X-86.3123 Y32.0585 
G01 X-86.3292 Y32.0488 
G01 X-86.3446 Y32.0369 
G01 X-86.3626 Y32.0294 
G01 X-86.3795 Y32.0197 
G01 X-86.3983 Y32.0147 
G01 X-86.4163 Y32.0072 
G01 X-86.4356 Y32.0047 
G01 X-86.4544 Y31.9996 
G01 X-86.4739 Y31.9996 
G01 X-86.4932 Y31.9971 
G01 X-86.5125 Y31.9996 
G01 X-86.5320 Y31.9996 
G01 X-86.5508 Y32.0047 
G01 X-86.5701 Y32.0072 
G01 X-86.5881 Y32.0147 
G01 X-86.6069 Y32.0197 
G01 X-86.6238 Y32.0294 
G01 X-87.2687 Y32.2966 
G01 X-87.9913 Y32.2966 
G01 X-88.6590 Y32.0200 
G01 X-89.1700 Y31.5090 
G01 X-89.4466 Y30.8413 
G01 X-89.4466 Y30.3144 
G01 X-89.4666 Y30.2395 
G01 X-89.5054 Y30.1723 
G01 X-89.5603 Y30.1175 
G01 X-92.3798 Y27.2979 
G01 X-92.5486 Y26.8905 
G01 X-92.5486 Y19.0835 
G01 X-92.3798 Y18.6761 
G01 X-91.9991 Y18.2953 
G01 X-90.5439 Y16.8402 
G01 X-90.1365 Y16.6714 
G01 X-78.8700 Y16.6714 
G01 X-78.7951 Y16.6514 
G01 X-78.7279 Y16.6126 
G01 X-78.6730 Y16.5577 
G01 X-78.4414 Y16.3261 
G01 X-77.8111 Y16.0650 
G01 X-77.1289 Y16.0650 
G01 X-76.4986 Y16.3261 
G01 X-76.0161 Y16.8086 
G01 X-75.7550 Y17.4389 
G01 X-75.7550 Y18.1211 
G01 X-76.0161 Y18.7514 
G01 X-76.4986 Y19.2339 
G01 X-77.1289 Y19.4950 
G01 X-77.8111 Y19.4950 
G01 X-78.4414 Y19.2339 
G01 X-78.7279 Y18.9474 
G01 X-78.7951 Y18.9086 
G01 X-78.8700 Y18.8886 
G01 X-82.4959 Y18.8886 
G01 X-82.5152 Y18.8860 
G01 X-82.5345 Y18.8886 
G01 X-82.5540 Y18.8886 
G01 X-82.5728 Y18.8936 
G01 X-82.5921 Y18.8961 
G01 X-82.6101 Y18.9036 
G01 X-82.6289 Y18.9086 
G01 X-82.6458 Y18.9184 
G01 X-82.6638 Y18.9258 
G01 X-82.6793 Y18.9377 
G01 X-82.6961 Y18.9474 
G01 X-82.7099 Y18.9612 
G01 X-82.7254 Y18.9731 
G01 X-82.7372 Y18.9885 
G01 X-82.7510 Y19.0023 
G01 X-82.7607 Y19.0192 
G01 X-82.7726 Y19.0346 
G01 X-82.7800 Y19.0526 
G01 X-82.7898 Y19.0695 
G01 X-82.7948 Y19.0883 
G01 X-82.8023 Y19.1063 
G01 X-82.8048 Y19.1256 
G01 X-82.8098 Y19.1444 
G01 X-82.8098 Y19.1639 
G01 X-82.8124 Y19.1832 
G01 X-82.8098 Y19.2025 
G01 X-82.8098 Y19.2220 
G01 X-82.8048 Y19.2408 
G01 X-82.8023 Y19.2601 
G01 X-82.7948 Y19.2781 
G01 X-82.7898 Y19.2969 
G01 X-82.7800 Y19.3138 
G01 X-82.7726 Y19.3318 
G01 X-82.7607 Y19.3472 
G01 X-82.7510 Y19.3641 
G01 X-82.7372 Y19.3779 
G01 X-82.6263 Y19.5224 
G01 X-82.5324 Y19.6850 
G01 X-82.4606 Y19.8585 
G01 X-82.4295 Y19.9746 
G01 X-82.5007 Y19.9746 
G01 X-82.5583 Y19.7974 
G01 X-82.6556 Y19.6064 
G01 X-82.7816 Y19.4331 
G01 X-82.9331 Y19.2815 
G01 X-83.1064 Y19.1556 
G01 X-83.2974 Y19.0583 
G01 X-83.5012 Y18.9921 
G01 X-83.7129 Y18.9586 
G01 X-83.9271 Y18.9586 
G01 X-84.1388 Y18.9921 
G01 X-84.3426 Y19.0583 
G01 X-84.5336 Y19.1556 
G01 X-84.7069 Y19.2815 
G01 X-84.8584 Y19.4331 
G01 X-84.9844 Y19.6064 
G01 X-85.0817 Y19.7974 
G01 X-85.1393 Y19.9746 
G01 X-85.2105 Y19.9746 
G01 X-85.1794 Y19.8585 
G01 X-85.1076 Y19.6850 
G01 X-85.0137 Y19.5224 
G01 X-84.9028 Y19.3779 
G01 X-84.8890 Y19.3641 
G01 X-84.8793 Y19.3472 
G01 X-84.8674 Y19.3318 
G01 X-84.8600 Y19.3138 
G01 X-84.8502 Y19.2969 
G01 X-84.8452 Y19.2781 
G01 X-84.8377 Y19.2601 
G01 X-84.8352 Y19.2408 
G01 X-84.8301 Y19.2220 
G01 X-84.8301 Y19.2025 
G01 X-84.8276 Y19.1832 
G01 X-84.8301 Y19.1639 
G01 X-84.8301 Y19.1444 
G01 X-84.8352 Y19.1256 
G01 X-84.8377 Y19.1063 
G01 X-84.8452 Y19.0883 
G01 X-84.8502 Y19.0695 
G01 X-84.8600 Y19.0526 
G01 X-84.8674 Y19.0346 
G01 X-84.8793 Y19.0192 
G01 X-84.8890 Y19.0023 
G01 X-84.9028 Y18.9885 
G01 X-84.9146 Y18.9731 
G01 X-84.9301 Y18.9612 
G01 X-84.9439 Y18.9474 
G01 X-84.9607 Y18.9377 
G01 X-84.9762 Y18.9258 
G01 X-84.9942 Y18.9184 
G01 X-85.0111 Y18.9086 
G01 X-85.0299 Y18.9036 
G01 X-85.0479 Y18.8961 
G01 X-85.0672 Y18.8936 
G01 X-85.0860 Y18.8886 
G01 X-85.1055 Y18.8886 
G01 X-85.1248 Y18.8860 
G01 X-85.1441 Y18.8886 
G01 X-86.8911 Y18.8886 
G01 X-86.9104 Y18.8860 
G01 X-86.9297 Y18.8886 
G01 X-86.9492 Y18.8886 
G01 X-86.9680 Y18.8936 
G01 X-86.9873 Y18.8961 
G01 X-87.0053 Y18.9036 
G01 X-87.0241 Y18.9086 
G01 X-87.0410 Y18.9184 
G01 X-87.0590 Y18.9258 
G01 X-87.0744 Y18.9377 
G01 X-87.0913 Y18.9474 
G01 X-87.1051 Y18.9612 
G01 X-87.1205 Y18.9731 
G01 X-87.1324 Y18.9885 
G01 X-87.1462 Y19.0023 
G01 X-87.1559 Y19.0192 
G01 X-87.1678 Y19.0346 
G01 X-87.1752 Y19.0526 
G01 X-87.1849 Y19.0695 
G01 X-87.1900 Y19.0883 
G01 X-87.1974 Y19.1063 
G01 X-87.2000 Y19.1256 
G01 X-87.2050 Y19.1444 
G01 X-87.2050 Y19.1639 
G01 X-87.2076 Y19.1832 
G01 X-87.2050 Y19.2025 
G01 X-87.2050 Y19.2220 
G01 X-87.2000 Y19.2408 
G01 X-87.1974 Y19.2601 
G01 X-87.1900 Y19.2781 
G01 X-87.1849 Y19.2969 
G01 X-87.1752 Y19.3138 
G01 X-86.9214 Y19.9264 
G01 X-86.9214 Y20.6476 
G01 X-86.9014 Y20.7225 
G01 X-86.8626 Y20.7897 
G01 X-86.8077 Y20.8445 
G01 X-84.1502 Y23.5021 
G01 X-83.9814 Y23.9095 
G01 X-83.9814 Y28.8616 
G01 X-83.9614 Y28.9365 
G01 X-83.9226 Y29.0037 
G01 X-83.8677 Y29.0586 
G01 X-83.8005 Y29.0974 
G01 X-83.7256 Y29.1174 
G01 X-78.6609 Y29.1174 
G01 X-78.6455 Y29.1199 
G01 X-78.6223 Y29.1174 
G01 X-78.5989 Y29.1174 
G01 X-78.5838 Y29.1134 
G01 X-78.5683 Y29.1118 
G01 X-78.5465 Y29.1034 
G01 X-78.5240 Y29.0974 
G01 X-78.5105 Y29.0896 
G01 X-78.4959 Y29.0840 
G01 X-78.4770 Y29.0702 
G01 X-78.4568 Y29.0586 
G01 X-78.4458 Y29.0475 
G01 X-78.4331 Y29.0384 
G01 X-78.4185 Y29.0202 
G01 X-78.4019 Y29.0037 
G01 X-78.3941 Y28.9902 
G01 X-78.3843 Y28.9781 
G01 X-78.3748 Y28.9568 
G01 X-78.3631 Y28.9365 
G01 X-78.3591 Y28.9214 
G01 X-78.3528 Y28.9072 
G01 X-78.3491 Y28.8841 
G01 X-78.3431 Y28.8616 
G01 X-78.3431 Y28.8460 
G01 X-78.3406 Y28.8306 
G01 X-78.3431 Y28.8074 
G01 X-78.3431 Y28.7840 
G01 X-78.3471 Y28.7689 
G01 X-78.3487 Y28.7534 
G01 X-78.3571 Y28.7316 
G01 X-78.3631 Y28.7091 
G01 X-78.3710 Y28.6956 
G01 X-78.3765 Y28.6810 
G01 X-78.3903 Y28.6621 
G01 X-78.4019 Y28.6419 
G01 X-78.4130 Y28.6308 
G01 X-78.4698 Y28.5527 
G01 X-78.5533 Y28.3887 
G01 X-78.6034 Y28.2347 
G01 X-78.5286 Y28.2347 
G01 X-78.4874 Y28.3614 
G01 X-78.4090 Y28.5154 
G01 X-78.3074 Y28.6552 
G01 X-78.1852 Y28.7774 
G01 X-78.0454 Y28.8790 
G01 X-77.8914 Y28.9574 
G01 X-77.7271 Y29.0108 
G01 X-77.5564 Y29.0378 
G01 X-77.3836 Y29.0378 
G01 X-77.2129 Y29.0108 
G01 X-77.0486 Y28.9574 
G01 X-76.8946 Y28.8790 
G01 X-76.7548 Y28.7774 
G01 X-76.6326 Y28.6552 
G01 X-76.5310 Y28.5154 
G01 X-76.4526 Y28.3614 
G01 X-76.3992 Y28.1971 
G01 X-76.3722 Y28.0264 
G01 X-76.3722 Y27.8536 
G01 X-76.3992 Y27.6829 
G01 X-76.4526 Y27.5186 
G01 X-76.5310 Y27.3646 
G01 X-76.6326 Y27.2248 
G01 X-76.7548 Y27.1026 
G01 X-76.8946 Y27.0010 
G01 X-76.9786 Y26.9583 
G01 X-76.9786 Y26.8784 
G01 X-76.8573 Y26.9402 
G01 X-76.7085 Y27.0484 
G01 X-76.5784 Y27.1785 
G01 X-76.4702 Y27.3273 
G01 X-76.3867 Y27.4913 
G01 X-76.3298 Y27.6663 
G01 X-76.3053 Y27.8214 
G01 X-76.3053 Y27.8370 
G01 X-76.2992 Y27.8595 
G01 X-76.2956 Y27.8826 
G01 X-76.2892 Y27.8969 
G01 X-76.2852 Y27.9119 
G01 X-76.2735 Y27.9321 
G01 X-76.2640 Y27.9535 
G01 X-76.2542 Y27.9656 
G01 X-76.2464 Y27.9791 
G01 X-76.2299 Y27.9956 
G01 X-76.2152 Y28.0138 
G01 X-76.2026 Y28.0229 
G01 X-76.1915 Y28.0340 
G01 X-76.1713 Y28.0456 
G01 X-76.1524 Y28.0594 
G01 X-76.1379 Y28.0650 
G01 X-76.1243 Y28.0728 
G01 X-76.1018 Y28.0788 
G01 X-76.0800 Y28.0872 
G01 X-76.0645 Y28.0888 
G01 X-76.0494 Y28.0928 
G01 X-76.0261 Y28.0928 
G01 X-76.0028 Y28.0953 
G01 X-75.9874 Y28.0928 
G01 X-75.9718 Y28.0928 
G01 X-75.9493 Y28.0868 
G01 X-75.9262 Y28.0831 
G01 X-75.9120 Y28.0768 
G01 X-75.8969 Y28.0728 
G01 X-75.8767 Y28.0611 
G01 X-75.8553 Y28.0516 
G01 X-75.8432 Y28.0418 
G01 X-75.8297 Y28.0340 
G01 X-75.8132 Y28.0174 
G01 X-75.7950 Y28.0028 
G01 X-75.7859 Y27.9901 
G01 X-73.0494 Y25.2537 
G01 X-73.0106 Y25.1865 
G01 X-72.9906 Y25.1116 
G01 X-72.9906 Y18.8295 
G01 X-72.8218 Y18.4221 
G01 X-64.1998 Y9.8001  
G01 X-63.8739 Y9.4742  
G01 X-63.4665 Y9.3054  
G01 X-54.1355 Y9.3054  
G01 X-53.7281 Y9.4742  
G01 X-49.7361 Y13.4662 
G01 X-49.6689 Y13.5050 
G01 X-49.5940 Y13.5250 
G01 X-49.1889 Y13.5250 
G01 X-48.5586 Y13.7861 
G01 X-48.0761 Y14.2686 
G01 X-47.8150 Y14.8989 
G01 X-47.8150 Y15.5811 
G01 X-48.0761 Y16.2114 
G01 X-48.3626 Y16.4979 
G01 X-48.4014 Y16.5651 
G01 X-48.4214 Y16.6400 
G01 X-48.4214 Y17.2385 
G01 X-48.5902 Y17.6459 
G01 X-48.9161 Y17.9718 
G01 X-48.9709 Y18.0267 
G01 X-52.4266 Y21.4823 
G01 X-52.4654 Y21.5495 
G01 X-52.4854 Y21.6244 
G01 X-52.4854 Y40.6056 
G01 X-52.4654 Y40.6805 
G01 X-52.4266 Y40.7477 
G01 X-52.3872 Y40.7870 
G01 X-49.9441 Y43.2301 
G01 X-49.9349 Y43.2428 
G01 X-49.9168 Y43.2574 
G01 X-49.9003 Y43.2740 
G01 X-49.8868 Y43.2818 
G01 X-49.8747 Y43.2916 
G01 X-49.8533 Y43.3011 
G01 X-49.8331 Y43.3128 
G01 X-49.8180 Y43.3168 
G01 X-49.8038 Y43.3231 
G01 X-49.7807 Y43.3268 
G01 X-49.7582 Y43.3328 
G01 X-49.7426 Y43.3328 
G01 X-49.7272 Y43.3353 
G01 X-49.7039 Y43.3328 
G01 X-49.6806 Y43.3328 
G01 X-49.6655 Y43.3288 
G01 X-49.6500 Y43.3272 
G01 X-49.6282 Y43.3188 
G01 X-49.6057 Y43.3128 
G01 X-49.5921 Y43.3050 
G01 X-49.5776 Y43.2994 
G01 X-49.5587 Y43.2856 
G01 X-49.5385 Y43.2740 
G01 X-49.5274 Y43.2629 
G01 X-49.5148 Y43.2538 
G01 X-49.5001 Y43.2356 
G01 X-49.4836 Y43.2191 
G01 X-49.4758 Y43.2056 
G01 X-49.4660 Y43.1935 
G01 X-49.4565 Y43.1721 
G01 X-49.4448 Y43.1519 
G01 X-49.4408 Y43.1368 
G01 X-49.4344 Y43.1226 
G01 X-49.4308 Y43.0995 
G01 X-49.4247 Y43.0770 
G01 X-49.4247 Y43.0614 
G01 X-49.4002 Y42.9063 
G01 X-49.3433 Y42.7313 
G01 X-49.2598 Y42.5673 
G01 X-49.1516 Y42.4185 
G01 X-49.0215 Y42.2884 
G01 X-48.8727 Y42.1802 
G01 X-48.7514 Y42.1184 
G01 X-48.7514 Y42.1983 
G01 X-48.8354 Y42.2410 
G01 X-48.9752 Y42.3426 
G01 X-49.0974 Y42.4648 
G01 X-49.1990 Y42.6046 
G01 X-49.2774 Y42.7586 
G01 X-49.3308 Y42.9229 
G01 X-49.3578 Y43.0936 
G01 X-49.3578 Y43.2664 
G01 X-49.3308 Y43.4371 
G01 X-49.2774 Y43.6014 
G01 X-49.1990 Y43.7554 
G01 X-49.0974 Y43.8952 
G01 X-48.9752 Y44.0174 
G01 X-48.8354 Y44.1190 
G01 X-48.6814 Y44.1974 
G01 X-48.5171 Y44.2508 
G01 X-48.3464 Y44.2778 
G01 X-48.1736 Y44.2778 
G01 X-48.0029 Y44.2508 
G01 X-47.8386 Y44.1974 
G01 X-47.6846 Y44.1190 
G01 X-47.5448 Y44.0174 
G01 X-47.4226 Y43.8952 
G01 X-47.3210 Y43.7554 
G01 X-47.2426 Y43.6014 
G01 X-47.1892 Y43.4371 
G01 X-47.1622 Y43.2664 
G01 X-47.1622 Y43.0936 
G01 X-47.1892 Y42.9229 
G01 X-47.2426 Y42.7586 
G01 X-47.3210 Y42.6046 
G01 X-47.4226 Y42.4648 
G01 X-47.5448 Y42.3426 
G01 X-47.6846 Y42.2410 
G01 X-47.7686 Y42.1983 
G01 X-47.7686 Y42.1184 
G01 X-47.6473 Y42.1802 
G01 X-47.5691 Y42.2370 
G01 X-47.5581 Y42.2481 
G01 X-47.5379 Y42.2597 
G01 X-47.5190 Y42.2735 
G01 X-47.5044 Y42.2790 
G01 X-47.4909 Y42.2868 
G01 X-47.4684 Y42.2929 
G01 X-47.4466 Y42.3013 
G01 X-47.4311 Y42.3029 
G01 X-47.4160 Y42.3069 
G01 X-47.3926 Y42.3069 
G01 X-47.3694 Y42.3094 
G01 X-47.3540 Y42.3069 
G01 X-47.3384 Y42.3069 
G01 X-47.3159 Y42.3009 
G01 X-47.2928 Y42.2972 
G01 X-47.2785 Y42.2909 
G01 X-47.2635 Y42.2868 
G01 X-47.2432 Y42.2752 
G01 X-47.2219 Y42.2657 
G01 X-47.2098 Y42.2559 
G01 X-47.1963 Y42.2481 
G01 X-47.1798 Y42.2315 
G01 X-47.1616 Y42.2169 
G01 X-47.1525 Y42.2042 
G01 X-47.1414 Y42.1932 
G01 X-47.1298 Y42.1730 
G01 X-47.1160 Y42.1541 
G01 X-47.1104 Y42.1395 
G01 X-47.1026 Y42.1260 
G01 X-47.0966 Y42.1035 
G01 X-47.0882 Y42.0817 
G01 X-47.0866 Y42.0661 
G01 X-47.0826 Y42.0511 
G01 X-47.0826 Y42.0277 
G01 X-47.0801 Y42.0045 
G01 X-47.0826 Y41.9891 
G01 X-47.0826 Y34.2109 
G01 X-47.0801 Y34.1955 
G01 X-47.0826 Y34.1723 
G01 X-47.0826 Y34.1489 
G01 X-47.0866 Y34.1339 
G01 X-47.0882 Y34.1183 
G01 X-47.0966 Y34.0965 
G01 X-47.1026 Y34.0740 
G01 X-47.1104 Y34.0605 
G01 X-47.1160 Y34.0459 
G01 X-47.1298 Y34.0270 
G01 X-47.1414 Y34.0068 
G01 X-47.1525 Y33.9958 
G01 X-47.1616 Y33.9831 
G01 X-47.1798 Y33.9685 
G01 X-47.1963 Y33.9519 
G01 X-47.2098 Y33.9441 
G01 X-47.2219 Y33.9343 
G01 X-47.2432 Y33.9248 
G01 X-47.2635 Y33.9131 
G01 X-47.2786 Y33.9091 
G01 X-47.2928 Y33.9028 
G01 X-47.3159 Y33.8991 
G01 X-47.3384 Y33.8931 
G01 X-47.3540 Y33.8931 
G01 X-47.3694 Y33.8906 
G01 X-47.3926 Y33.8931 
G01 X-47.4160 Y33.8931 
G01 X-47.4311 Y33.8971 
G01 X-47.4466 Y33.8987 
G01 X-47.4684 Y33.9071 
G01 X-47.4909 Y33.9131 
G01 X-47.5044 Y33.9210 
G01 X-47.5190 Y33.9265 
G01 X-47.5379 Y33.9403 
G01 X-47.5581 Y33.9519 
G01 X-47.5691 Y33.9630 
G01 X-47.6473 Y34.0198 
G01 X-47.7686 Y34.0816 
G01 X-47.7686 Y34.0017 
G01 X-47.6846 Y33.9590 
G01 X-47.5448 Y33.8574 
G01 X-47.4226 Y33.7352 
G01 X-47.3210 Y33.5954 
G01 X-47.2426 Y33.4414 
G01 X-47.1892 Y33.2771 
G01 X-47.1622 Y33.1064 
G01 X-47.1622 Y32.9336 
G01 X-47.1892 Y32.7629 
G01 X-47.2426 Y32.5986 
G01 X-47.3210 Y32.4446 
G01 X-47.4226 Y32.3048 
G01 X-47.5448 Y32.1826 
G01 X-47.6846 Y32.0810 
G01 X-47.8386 Y32.0026 
G01 X-47.9653 Y31.9614 
G01 X-47.9653 Y31.8866 
G01 X-47.8113 Y31.9367 
G01 X-47.6473 Y32.0202 
G01 X-47.5691 Y32.0770 
G01 X-47.5581 Y32.0881 
G01 X-47.5379 Y32.0997 
G01 X-47.5190 Y32.1135 
G01 X-47.5044 Y32.1190 
G01 X-47.4909 Y32.1268 
G01 X-47.4684 Y32.1329 
G01 X-47.4466 Y32.1413 
G01 X-47.4311 Y32.1429 
G01 X-47.4160 Y32.1469 
G01 X-47.3926 Y32.1469 
G01 X-47.3694 Y32.1494 
G01 X-47.3540 Y32.1469 
G01 X-47.3384 Y32.1469 
G01 X-47.3159 Y32.1409 
G01 X-47.2928 Y32.1372 
G01 X-47.2785 Y32.1309 
G01 X-47.2635 Y32.1268 
G01 X-47.2432 Y32.1152 
G01 X-47.2219 Y32.1057 
G01 X-47.2098 Y32.0959 
G01 X-47.1963 Y32.0881 
G01 X-47.1798 Y32.0715 
G01 X-47.1616 Y32.0569 
G01 X-47.1525 Y32.0442 
G01 X-47.1414 Y32.0332 
G01 X-47.1298 Y32.0130 
G01 X-47.1160 Y31.9941 
G01 X-47.1104 Y31.9795 
G01 X-47.1026 Y31.9660 
G01 X-47.0966 Y31.9435 
G01 X-47.0882 Y31.9217 
G01 X-47.0866 Y31.9061 
G01 X-47.0826 Y31.8911 
G01 X-47.0826 Y31.8677 
G01 X-47.0801 Y31.8445 
G01 X-47.0826 Y31.8291 
G01 X-47.0826 Y30.0064 
G01 X-47.1026 Y29.9315 
G01 X-47.1414 Y29.8643 
G01 X-47.1843 Y29.8215 
G01 X-49.8496 Y27.1562 
G01 X-49.8614 Y27.1407 
G01 X-49.8769 Y27.1288 
G01 X-49.8907 Y27.1151 
G01 X-49.9075 Y27.1053 
G01 X-49.9230 Y27.0935 
G01 X-49.9410 Y27.0860 
G01 X-49.9578 Y27.0763 
G01 X-49.9767 Y27.0712 
G01 X-50.5014 Y26.8539 
G01 X-50.9839 Y26.3714 
G01 X-51.2450 Y25.7411 
G01 X-51.2450 Y25.0589 
G01 X-50.9839 Y24.4286 
G01 X-50.5014 Y23.9461 
G01 X-49.9767 Y23.7288 
G01 X-49.9578 Y23.7237 
G01 X-49.9410 Y23.7140 
G01 X-49.9230 Y23.7065 
G01 X-49.9075 Y23.6947 
G01 X-49.8907 Y23.6849 
G01 X-49.8769 Y23.6711 
G01 X-49.8614 Y23.6593 
G01 X-49.8496 Y23.6438 
G01 X-45.6174 Y19.4117 
G01 X-45.5786 Y19.3445 
G01 X-45.5586 Y19.2696 
G01 X-45.5586 Y16.6400 
G01 X-45.5786 Y16.5651 
G01 X-45.6174 Y16.4979 
G01 X-45.6723 Y16.4430 
G01 X-45.9039 Y16.2114 
G01 X-46.1650 Y15.5811 
G01 X-46.1650 Y14.8989 
G01 X-45.9039 Y14.2686 
G01 X-45.4214 Y13.7861 
G01 X-44.7911 Y13.5250 
G01 X-44.3860 Y13.5250 
G01 X-44.3111 Y13.5050 
G01 X-44.2439 Y13.4662 
G01 X-44.1890 Y13.4113 
G01 X-44.0619 Y13.2842 
G01 X-43.6545 Y13.1154 
G01 X-35.5935 Y13.1154 
G01 X-35.1861 Y13.2842 
G01 X-34.8389 Y13.6313 
G01 X-33.5368 Y14.9335 
G01 X-33.5250 Y14.9489 
G01 X-33.5095 Y14.9608 
G01 X-33.4957 Y14.9745 
G01 X-33.4789 Y14.9843 
G01 X-33.4634 Y14.9961 
G01 X-33.4454 Y15.0036 
G01 X-33.4285 Y15.0133 
G01 X-33.4097 Y15.0184 
G01 X-33.3185 Y15.0561 
G01 X-32.8361 Y15.5386 
G01 X-32.5750 Y16.1689 
G01 X-32.5750 Y16.8511 
G01 X-32.8361 Y17.4814 
G01 X-33.3186 Y17.9639 
G01 X-33.9489 Y18.2250 
G01 X-34.6311 Y18.2250 
G01 X-35.2962 Y17.9495 
G01 X-35.3131 Y17.9397 
G01 X-35.3319 Y17.9347 
G01 X-35.3499 Y17.9272 
G01 X-35.3692 Y17.9247 
G01 X-35.3880 Y17.9197 
G01 X-35.4075 Y17.9197 
G01 X-35.4268 Y17.9171 
G01 X-35.4461 Y17.9197 
G01 X-35.4656 Y17.9197 
G01 X-35.4844 Y17.9247 
G01 X-35.5037 Y17.9272 
G01 X-35.5217 Y17.9347 
G01 X-35.5405 Y17.9397 
G01 X-35.5574 Y17.9495 
G01 X-35.5754 Y17.9569 
G01 X-35.5908 Y17.9688 
G01 X-35.6077 Y17.9785 
G01 X-35.6215 Y17.9923 
G01 X-35.6369 Y18.0041 
G01 X-35.6488 Y18.0196 
G01 X-35.6626 Y18.0334 
G01 X-35.6723 Y18.0502 
G01 X-35.6842 Y18.0657 
G01 X-35.6916 Y18.0837 
G01 X-35.7014 Y18.1006 
G01 X-35.7064 Y18.1194 
G01 X-35.7139 Y18.1374 
G01 X-35.7164 Y18.1567 
G01 X-35.7214 Y18.1755 
G01 X-35.7214 Y18.1950 
G01 X-35.7240 Y18.2143 
G01 X-35.7214 Y18.2336 
G01 X-35.7214 Y22.7856 
G01 X-35.7240 Y22.8050 
G01 X-35.7214 Y22.8243 
G01 X-35.7214 Y22.8438 
G01 X-35.7164 Y22.8626 
G01 X-35.7139 Y22.8819 
G01 X-35.7064 Y22.8999 
G01 X-35.7014 Y22.9187 
G01 X-35.6916 Y22.9356 
G01 X-35.6842 Y22.9536 
G01 X-35.6723 Y22.9690 
G01 X-35.6626 Y22.9859 
G01 X-35.6488 Y22.9997 
G01 X-35.6369 Y23.0151 
G01 X-35.6215 Y23.0269 
G01 X-35.6077 Y23.0407 
G01 X-35.5908 Y23.0505 
G01 X-35.5754 Y23.0623 
G01 X-35.5574 Y23.0698 
G01 X-35.5405 Y23.0795 
G01 X-35.5217 Y23.0846 
G01 X-35.5037 Y23.0920 
G01 X-35.4844 Y23.0946 
G01 X-35.4656 Y23.0996 
G01 X-35.4461 Y23.0996 
G01 X-35.4268 Y23.1021 
G01 X-35.4075 Y23.0996 
G01 X-35.3880 Y23.0996 
G01 X-35.3692 Y23.0946 
G01 X-35.3499 Y23.0920 
G01 X-35.3319 Y23.0846 
G01 X-35.3131 Y23.0795 
G01 X-35.2962 Y23.0698 
G01 X-35.2782 Y23.0623 
G01 X-35.2628 Y23.0505 
G01 X-35.2459 Y23.0407 
G01 X-35.2321 Y23.0270 
G01 X-35.2167 Y23.0151 
G01 X-35.2048 Y22.9997 
G01 X-35.1910 Y22.9859 
G01 X-35.1813 Y22.9690 
G01 X-35.1694 Y22.9535 
G01 X-35.1620 Y22.9356 
G01 X-35.1522 Y22.9187 
G01 X-35.1472 Y22.8999 
G01 X-34.9758 Y22.4861 
G01 X-34.5951 Y22.1053 
G01 X-29.2939 Y16.8042 
G01 X-29.2551 Y16.7370 
G01 X-29.2351 Y16.6621 
G01 X-29.2351 Y16.1291 
G01 X-28.9435 Y15.4252 
G01 X-28.4048 Y14.8865 
G01 X-27.7009 Y14.5949 
G01 X-26.9391 Y14.5949 
G01 X-26.2352 Y14.8865 
G01 X-25.7509 Y15.3708 
G01 X-25.6837 Y15.4096 
G01 X-25.6088 Y15.4297 
G01 X-25.5312 Y15.4297 
G01 X-25.5280 Y15.4288 
G01 X-25.4563 Y15.4096 
G01 X-25.3906 Y15.3716 
G01 X-25.3342 Y15.3159 
G01 X-24.9048 Y14.8865 
G01 X-24.2009 Y14.5949 
G01 X-23.4391 Y14.5949 
G01 X-22.7352 Y14.8865 
G01 X-22.1965 Y15.4252 
G01 X-22.0474 Y15.7852 
G01 X-22.0423 Y15.8040 
G01 X-22.0326 Y15.8208 
G01 X-22.0252 Y15.8388 
G01 X-22.0133 Y15.8543 
G01 X-22.0036 Y15.8712 
G01 X-21.9898 Y15.8849 
G01 X-21.9779 Y15.9004 
G01 X-21.9625 Y15.9122 
G01 X-21.9487 Y15.9260 
G01 X-21.9318 Y15.9358 
G01 X-21.9164 Y15.9476 
G01 X-21.8984 Y15.9551 
G01 X-21.8815 Y15.9648 
G01 X-21.8627 Y15.9699 
G01 X-21.8447 Y15.9773 
G01 X-21.8254 Y15.9798 
G01 X-21.8066 Y15.9849 
G01 X-21.7871 Y15.9849 
G01 X-21.7678 Y15.9874 
G01 X-21.7485 Y15.9849 
G01 X-21.7290 Y15.9849 
G01 X-21.7102 Y15.9798 
G01 X-21.6909 Y15.9773 
G01 X-21.6729 Y15.9699 
G01 X-21.6541 Y15.9648 
G01 X-21.6372 Y15.9551 
G01 X-21.6192 Y15.9476 
G01 X-21.6037 Y15.9358 
G01 X-21.5945 Y15.9304 
G01 X-21.5196 Y16.0054 
G01 X-21.5228 Y16.0118 
G01 X-21.5860 Y16.2061 
G01 X-21.6179 Y16.4078 
G01 X-21.6179 Y16.6121 
G01 X-21.5860 Y16.8139 
G01 X-21.5228 Y17.0082 
G01 X-21.4301 Y17.1903 
G01 X-21.3100 Y17.3556 
G01 X-21.1655 Y17.5000 
G01 X-21.0003 Y17.6201 
G01 X-20.8182 Y17.7128 
G01 X-20.7114 Y17.7475 
G01 X-20.7114 Y18.0236 
G01 X-20.6914 Y18.0985 
G01 X-20.6526 Y18.1657 
G01 X-20.5977 Y18.2205 
G01 X-18.1417 Y20.6766 
G01 X-18.0745 Y20.7154 
G01 X-17.9996 Y20.7354 
G01 X-17.9220 Y20.7354 
G01 X-16.5435 Y20.7354 
G00 Z2.5400  
G00 X-69.6778 Y51.9836 
G01 Z-0.1778 F254   
G01 X-69.6778 Y52.1564 F508   
G01 X-69.6508 Y52.3271 
G01 X-69.5974 Y52.4914 
G01 X-69.5190 Y52.6454 
G01 X-69.4174 Y52.7852 
G01 X-69.2952 Y52.9074 
G01 X-69.1554 Y53.0090 
G01 X-69.0014 Y53.0874 
G01 X-68.8371 Y53.1408 
G01 X-68.6664 Y53.1678 
G01 X-68.4936 Y53.1678 
G01 X-68.3229 Y53.1408 
G01 X-68.1586 Y53.0874 
G01 X-68.0046 Y53.0090 
G01 X-67.8648 Y52.9074 
G01 X-67.7426 Y52.7852 
G01 X-67.6410 Y52.6454 
G01 X-67.5626 Y52.4914 
G01 X-67.5092 Y52.3271 
G01 X-67.4822 Y52.1564 
G01 X-67.4822 Y51.9836 
G01 X-67.5092 Y51.8129 
G01 X-67.5626 Y51.6486 
G01 X-67.6410 Y51.4946 
G01 X-67.7426 Y51.3548 
G01 X-67.8648 Y51.2326 
G01 X-68.0046 Y51.1310 
G01 X-68.1586 Y51.0526 
G01 X-68.3229 Y50.9992 
G01 X-68.4936 Y50.9722 
G01 X-68.6664 Y50.9722 
G01 X-68.8371 Y50.9992 
G01 X-69.0014 Y51.0526 
G01 X-69.1554 Y51.1310 
G01 X-69.2952 Y51.2326 
G01 X-69.4174 Y51.3548 
G01 X-69.5190 Y51.4946 
G01 X-69.5974 Y51.6486 
G01 X-69.6508 Y51.8129 
G01 X-69.6778 Y51.9836 
G00 Z2.5400  
G00 X-77.2978 Y44.3636 
G01 Z-0.1778 F254   
G01 X-77.2978 Y44.5364 F508   
G01 X-77.2708 Y44.7071 
G01 X-77.2174 Y44.8714 
G01 X-77.1390 Y45.0254 
G01 X-77.0374 Y45.1652 
G01 X-76.9152 Y45.2874 
G01 X-76.7754 Y45.3890 
G01 X-76.6214 Y45.4674 
G01 X-76.4571 Y45.5208 
G01 X-76.2864 Y45.5478 
G01 X-76.1136 Y45.5478 
G01 X-75.9429 Y45.5208 
G01 X-75.7786 Y45.4674 
G01 X-75.6246 Y45.3890 
G01 X-75.4848 Y45.2874 
G01 X-75.3626 Y45.1652 
G01 X-75.2610 Y45.0254 
G01 X-75.1826 Y44.8714 
G01 X-75.1292 Y44.7071 
G01 X-75.1022 Y44.5364 
G01 X-75.1022 Y44.3636 
G01 X-75.1292 Y44.1929 
G01 X-75.1826 Y44.0286 
G01 X-75.2610 Y43.8746 
G01 X-75.3626 Y43.7348 
G01 X-75.4848 Y43.6126 
G01 X-75.6246 Y43.5110 
G01 X-75.7786 Y43.4326 
G01 X-75.9429 Y43.3792 
G01 X-76.1136 Y43.3522 
G01 X-76.2864 Y43.3522 
G01 X-76.4571 Y43.3792 
G01 X-76.6214 Y43.4326 
G01 X-76.7754 Y43.5110 
G01 X-76.9152 Y43.6126 
G01 X-77.0374 Y43.7348 
G01 X-77.1390 Y43.8746 
G01 X-77.2174 Y44.0286 
G01 X-77.2708 Y44.1929 
G01 X-77.2978 Y44.3636 
G00 Z2.5400  
G00 X-69.5974 Y47.4114 
G01 Z-0.1778 F254   
G01 X-69.5190 Y47.5654 F508   
G01 X-69.4174 Y47.7052 
G01 X-69.2952 Y47.8274 
G01 X-69.1554 Y47.9290 
G01 X-69.0014 Y48.0074 
G01 X-68.8371 Y48.0608 
G01 X-68.6664 Y48.0878 
G01 X-68.4936 Y48.0878 
G01 X-68.3229 Y48.0608 
G01 X-68.1586 Y48.0074 
G01 X-68.0046 Y47.9290 
G01 X-67.8648 Y47.8274 
G01 X-67.7426 Y47.7052 
G01 X-67.6410 Y47.5654 
G01 X-67.5626 Y47.4114 
G01 X-67.5092 Y47.2471 
G01 X-67.4822 Y47.0764 
G01 X-67.4822 Y46.9036 
G01 X-67.5092 Y46.7329 
G01 X-67.5626 Y46.5686 
G01 X-67.6410 Y46.4146 
G01 X-67.7426 Y46.2748 
G01 X-67.8648 Y46.1526 
G01 X-68.0046 Y46.0510 
G01 X-68.1586 Y45.9726 
G01 X-68.3229 Y45.9192 
G01 X-68.4936 Y45.8922 
G01 X-68.6664 Y45.8922 
G01 X-68.8371 Y45.9192 
G01 X-69.0014 Y45.9726 
G01 X-69.1554 Y46.0510 
G01 X-69.2952 Y46.1526 
G01 X-69.3898 Y46.2472 
G01 X-70.8826 Y44.7544 
G01 X-70.8826 Y32.2076 
G01 X-67.6567 Y28.9817 
G01 X-67.5671 Y29.0108 
G01 X-67.3964 Y29.0378 
G01 X-67.2236 Y29.0378 
G01 X-67.0529 Y29.0108 
G01 X-66.8886 Y28.9574 
G01 X-66.7346 Y28.8790 
G01 X-66.5948 Y28.7774 
G01 X-66.4726 Y28.6552 
G01 X-66.3710 Y28.5154 
G01 X-66.2926 Y28.3614 
G01 X-66.2392 Y28.1971 
G01 X-66.2122 Y28.0264 
G01 X-66.2122 Y27.8536 
G01 X-66.2392 Y27.6829 
G01 X-66.2926 Y27.5186 
G01 X-66.3710 Y27.3646 
G01 X-66.4726 Y27.2248 
G01 X-66.5948 Y27.1026 
G01 X-66.7346 Y27.0010 
G01 X-66.8186 Y26.9583 
G01 X-66.8186 Y25.3496 
G01 X-61.8368 Y20.3678 
G01 X-61.7721 Y20.2557 
G01 X-61.7386 Y20.1307 
G01 X-61.7386 Y16.2217 
G01 X-61.6546 Y16.1790 
G01 X-61.5148 Y16.0774 
G01 X-61.3926 Y15.9552 
G01 X-61.2910 Y15.8154 
G01 X-61.2126 Y15.6614 
G01 X-61.1592 Y15.4971 
G01 X-61.1322 Y15.3264 
G01 X-61.1322 Y15.1536 
G01 X-61.1592 Y14.9829 
G01 X-61.2126 Y14.8186 
G01 X-61.2910 Y14.6646 
G01 X-61.3926 Y14.5248 
G01 X-61.5148 Y14.4026 
G01 X-61.6546 Y14.3010 
G01 X-61.8086 Y14.2226 
G01 X-61.9729 Y14.1692 
G01 X-62.1436 Y14.1422 
G01 X-62.3164 Y14.1422 
G01 X-62.4871 Y14.1692 
G01 X-62.6514 Y14.2226 
G01 X-62.8054 Y14.3010 
G01 X-62.9452 Y14.4026 
G01 X-63.0674 Y14.5248 
G01 X-63.1690 Y14.6646 
G01 X-63.2474 Y14.8186 
G01 X-63.3008 Y14.9829 
G01 X-63.3278 Y15.1536 
G01 X-63.3278 Y15.3264 
G01 X-63.3008 Y15.4971 
G01 X-63.2474 Y15.6614 
G01 X-63.1690 Y15.8154 
G01 X-63.0674 Y15.9552 
G01 X-62.9452 Y16.0774 
G01 X-62.8054 Y16.1790 
G01 X-62.7214 Y16.2217 
G01 X-62.7214 Y19.8624 
G01 X-67.6118 Y24.7528 
G01 X-67.7032 Y24.8442 
G01 X-67.7679 Y24.9563 
G01 X-67.8014 Y25.0813 
G01 X-67.8014 Y26.9583 
G01 X-67.8854 Y27.0010 
G01 X-68.0252 Y27.1026 
G01 X-68.1474 Y27.2248 
G01 X-68.2490 Y27.3646 
G01 X-68.3274 Y27.5186 
G01 X-68.3808 Y27.6829 
G01 X-68.4078 Y27.8536 
G01 X-68.4078 Y28.0264 
G01 X-68.3808 Y28.1971 
G01 X-68.3517 Y28.2867 
G01 X-71.7672 Y31.7022 
G01 X-71.8319 Y31.8143 
G01 X-71.8654 Y31.9393 
G01 X-71.8654 Y45.0227 
G01 X-71.8319 Y45.1477 
G01 X-71.7672 Y45.2598 
G01 X-71.6758 Y45.3512 
G01 X-69.7353 Y47.2917 
G01 X-69.6437 Y47.3832 
G01 X-69.5980 Y47.4097 
G00 Z2.5400  
G00 X-77.2978 Y51.9836 
G01 Z-0.1778 F254   
G01 X-77.2978 Y52.1564 F508   
G01 X-77.2708 Y52.3271 
G01 X-77.2174 Y52.4914 
G01 X-77.1390 Y52.6454 
G01 X-77.0374 Y52.7852 
G01 X-76.9152 Y52.9074 
G01 X-76.7754 Y53.0090 
G01 X-76.6214 Y53.0874 
G01 X-76.4571 Y53.1408 
G01 X-76.2864 Y53.1678 
G01 X-76.1136 Y53.1678 
G01 X-75.9429 Y53.1408 
G01 X-75.7786 Y53.0874 
G01 X-75.6246 Y53.0090 
G01 X-75.4848 Y52.9074 
G01 X-75.3626 Y52.7852 
G01 X-75.2610 Y52.6454 
G01 X-75.1826 Y52.4914 
G01 X-75.1292 Y52.3271 
G01 X-75.1022 Y52.1564 
G01 X-75.1022 Y51.9836 
G01 X-75.1292 Y51.8129 
G01 X-75.1826 Y51.6486 
G01 X-75.2610 Y51.4946 
G01 X-75.3626 Y51.3548 
G01 X-75.4848 Y51.2326 
G01 X-75.6246 Y51.1310 
G01 X-75.7786 Y51.0526 
G01 X-75.9429 Y50.9992 
G01 X-76.1136 Y50.9722 
G01 X-76.2864 Y50.9722 
G01 X-76.4571 Y50.9992 
G01 X-76.6214 Y51.0526 
G01 X-76.7754 Y51.1310 
G01 X-76.9152 Y51.2326 
G01 X-77.0374 Y51.3548 
G01 X-77.1390 Y51.4946 
G01 X-77.2174 Y51.6486 
G01 X-77.2708 Y51.8129 
G01 X-77.2978 Y51.9836 
G00 Z2.5400  
G00 X-39.1978 Y32.9336 
G01 Z-0.1778 F254   
G01 X-39.1978 Y33.1064 F508   
G01 X-39.1708 Y33.2771 
G01 X-39.1174 Y33.4414 
G01 X-39.0390 Y33.5954 
G01 X-38.9374 Y33.7352 
G01 X-38.8152 Y33.8574 
G01 X-38.6754 Y33.9590 
G01 X-38.5214 Y34.0374 
G01 X-38.3571 Y34.0908 
G01 X-38.1864 Y34.1178 
G01 X-38.0136 Y34.1178 
G01 X-37.8429 Y34.0908 
G01 X-37.6786 Y34.0374 
G01 X-37.5246 Y33.9590 
G01 X-37.3848 Y33.8574 
G01 X-37.2626 Y33.7352 
G01 X-37.1610 Y33.5954 
G01 X-37.0826 Y33.4414 
G01 X-37.0292 Y33.2771 
G01 X-37.0022 Y33.1064 
G01 X-37.0022 Y32.9336 
G01 X-37.0292 Y32.7629 
G01 X-37.0583 Y32.6733 
G01 X-33.8968 Y29.5118 
G01 X-33.8321 Y29.3997 
G01 X-33.7986 Y29.2747 
G01 X-33.7986 Y26.3817 
G01 X-33.7146 Y26.3390 
G01 X-33.5748 Y26.2374 
G01 X-33.4526 Y26.1152 
G01 X-33.3510 Y25.9754 
G01 X-33.2726 Y25.8214 
G01 X-33.2192 Y25.6571 
G01 X-33.1922 Y25.4864 
G01 X-33.1922 Y25.3136 
G01 X-33.2192 Y25.1429 
G01 X-33.2726 Y24.9786 
G01 X-33.3510 Y24.8246 
G01 X-33.4526 Y24.6848 
G01 X-33.5446 Y24.5929 
G01 X-33.5446 Y23.3176 
G01 X-27.8988 Y17.6718 
G01 X-27.8182 Y17.7128 
G01 X-27.6239 Y17.7760 
G01 X-27.4222 Y17.8079 
G01 X-27.2178 Y17.8079 
G01 X-27.0161 Y17.7760 
G01 X-26.8218 Y17.7128 
G01 X-26.6397 Y17.6201 
G01 X-26.4744 Y17.5000 
G01 X-26.3300 Y17.3556 
G01 X-26.2099 Y17.1903 
G01 X-26.1172 Y17.0082 
G01 X-26.0540 Y16.8139 
G01 X-26.0221 Y16.6121 
G01 X-26.0221 Y16.4078 
G01 X-26.0540 Y16.2061 
G01 X-26.1172 Y16.0118 
G01 X-26.2099 Y15.8297 
G01 X-26.3300 Y15.6644 
G01 X-26.4744 Y15.5200 
G01 X-26.6397 Y15.3999 
G01 X-26.8218 Y15.3072 
G01 X-27.0161 Y15.2440 
G01 X-27.2178 Y15.2121 
G01 X-27.4222 Y15.2121 
G01 X-27.6239 Y15.2440 
G01 X-27.8182 Y15.3072 
G01 X-28.0003 Y15.3999 
G01 X-28.1655 Y15.5200 
G01 X-28.3100 Y15.6644 
G01 X-28.4301 Y15.8297 
G01 X-28.5228 Y16.0118 
G01 X-28.5860 Y16.2061 
G01 X-28.6179 Y16.4078 
G01 X-28.6179 Y16.6121 
G01 X-28.5860 Y16.8139 
G01 X-28.5480 Y16.9310 
G01 X-34.3377 Y22.7208 
G01 X-34.4292 Y22.8122 
G01 X-34.4939 Y22.9243 
G01 X-34.5274 Y23.0493 
G01 X-34.5274 Y24.3261 
G01 X-34.5471 Y24.3292 
G01 X-34.7114 Y24.3826 
G01 X-34.8654 Y24.4610 
G01 X-35.0052 Y24.5626 
G01 X-35.1274 Y24.6848 
G01 X-35.2290 Y24.8246 
G01 X-35.3074 Y24.9786 
G01 X-35.3608 Y25.1429 
G01 X-35.3878 Y25.3136 
G01 X-35.3878 Y25.4864 
G01 X-35.3608 Y25.6571 
G01 X-35.3074 Y25.8214 
G01 X-35.2290 Y25.9754 
G01 X-35.1274 Y26.1152 
G01 X-35.0052 Y26.2374 
G01 X-34.8654 Y26.3390 
G01 X-34.7814 Y26.3817 
G01 X-34.7814 Y29.0064 
G01 X-37.7533 Y31.9783 
G01 X-37.8429 Y31.9492 
G01 X-38.0136 Y31.9222 
G01 X-38.1864 Y31.9222 
G01 X-38.3571 Y31.9492 
G01 X-38.5214 Y32.0026 
G01 X-38.6754 Y32.0810 
G01 X-38.8152 Y32.1826 
G01 X-38.9374 Y32.3048 
G01 X-39.0390 Y32.4446 
G01 X-39.1174 Y32.5986 
G01 X-39.1708 Y32.7629 
G01 X-39.1978 Y32.9336 
G00 Z2.5400  
G00 X-18.7190 Y24.7054 
G01 Z-0.1778 F254   
G01 X-18.6174 Y24.8452 F508   
G01 X-18.4952 Y24.9674 
G01 X-18.3554 Y25.0690 
G01 X-18.2714 Y25.1117 
G01 X-18.2714 Y28.2587 
G01 X-18.2379 Y28.3837 
G01 X-18.1732 Y28.4958 
G01 X-15.7314 Y30.9376 
G01 X-15.7314 Y37.6424 
G01 X-16.9676 Y38.8786 
G01 X-22.4167 Y38.8786 
G01 X-22.5417 Y38.9121 
G01 X-22.6538 Y38.9768 
G01 X-31.7978 Y48.1208 
G01 X-31.8892 Y48.2122 
G01 X-31.9539 Y48.3243 
G01 X-31.9874 Y48.4493 
G01 X-31.9874 Y52.3887 
G01 X-31.9539 Y52.5137 
G01 X-31.8892 Y52.6258 
G01 X-26.6468 Y57.8682 
G01 X-26.6617 Y57.8974 
G01 X-26.7279 Y58.1012 
G01 X-26.7614 Y58.3129 
G01 X-26.7614 Y58.5271 
G01 X-26.7279 Y58.7388 
G01 X-26.6617 Y58.9426 
G01 X-26.5644 Y59.1335 
G01 X-26.4384 Y59.3069 
G01 X-26.2869 Y59.4584 
G01 X-26.1136 Y59.5844 
G01 X-25.9226 Y59.6817 
G01 X-25.7188 Y59.7479 
G01 X-25.5071 Y59.7814 
G01 X-25.2929 Y59.7814 
G01 X-25.0812 Y59.7479 
G01 X-24.8774 Y59.6817 
G01 X-24.6864 Y59.5844 
G01 X-24.5131 Y59.4584 
G01 X-24.3616 Y59.3069 
G01 X-24.2356 Y59.1335 
G01 X-24.1383 Y58.9426 
G01 X-24.0721 Y58.7388 
G01 X-24.0386 Y58.5271 
G01 X-24.0386 Y58.3129 
G01 X-24.0721 Y58.1012 
G01 X-24.1383 Y57.8974 
G01 X-24.2356 Y57.7064 
G01 X-24.3616 Y57.5331 
G01 X-24.5131 Y57.3816 
G01 X-24.6864 Y57.2556 
G01 X-24.8774 Y57.1583 
G01 X-25.0812 Y57.0921 
G01 X-25.2929 Y57.0586 
G01 X-25.5071 Y57.0586 
G01 X-25.7188 Y57.0921 
G01 X-25.9226 Y57.1583 
G01 X-25.9518 Y57.1732 
G01 X-31.0046 Y52.1204 
G01 X-31.0046 Y48.7176 
G01 X-22.1484 Y39.8614 
G01 X-16.6993 Y39.8614 
G01 X-16.5743 Y39.8279 
G01 X-16.4622 Y39.7632 
G01 X-16.3708 Y39.6718 
G01 X-14.8468 Y38.1478 
G01 X-14.7820 Y38.0357 
G01 X-14.7486 Y37.9107 
G01 X-14.7486 Y30.6693 
G01 X-14.7820 Y30.5443 
G01 X-14.8468 Y30.4322 
G01 X-14.9382 Y30.3407 
G01 X-17.2886 Y27.9904 
G01 X-17.2886 Y25.1117 
G01 X-17.2046 Y25.0690 
G01 X-17.0648 Y24.9674 
G01 X-16.9426 Y24.8452 
G01 X-16.8410 Y24.7054 
G01 X-16.7626 Y24.5514 
G01 X-16.7092 Y24.3871 
G01 X-16.6822 Y24.2164 
G01 X-16.6822 Y24.0436 
G01 X-16.7092 Y23.8729 
G01 X-16.7626 Y23.7086 
G01 X-16.8410 Y23.5546 
G01 X-16.9426 Y23.4148 
G01 X-17.0648 Y23.2926 
G01 X-17.2046 Y23.1910 
G01 X-17.3586 Y23.1126 
G01 X-17.5229 Y23.0592 
G01 X-17.6936 Y23.0322 
G01 X-17.8664 Y23.0322 
G01 X-18.0371 Y23.0592 
G01 X-18.2014 Y23.1126 
G01 X-18.3554 Y23.1910 
G01 X-18.4952 Y23.2926 
G01 X-18.5898 Y23.3872 
G01 X-20.5262 Y21.4507 
G01 X-20.6383 Y21.3861 
G01 X-20.7633 Y21.3526 
G01 X-30.2907 Y21.3526 
G01 X-30.4157 Y21.3861 
G01 X-30.5278 Y21.4507 
G01 X-30.6192 Y21.5422 
G01 X-31.8892 Y22.8122 
G01 X-31.9539 Y22.9243 
G01 X-31.9874 Y23.0493 
G01 X-31.9874 Y29.5144 
G01 X-37.2876 Y34.8146 
G01 X-38.9124 Y34.8146 
G01 X-40.9106 Y32.8164 
G01 X-40.9106 Y27.8753 
G01 X-40.9441 Y27.7503 
G01 X-40.9738 Y27.6988 
G01 X-39.7167 Y26.4417 
G01 X-39.6271 Y26.4708 
G01 X-39.4564 Y26.4978 
G01 X-39.2836 Y26.4978 
G01 X-39.1129 Y26.4708 
G01 X-38.9486 Y26.4174 
G01 X-38.7946 Y26.3390 
G01 X-38.6548 Y26.2374 
G01 X-38.5326 Y26.1152 
G01 X-38.4310 Y25.9754 
G01 X-38.3526 Y25.8214 
G01 X-38.2992 Y25.6571 
G01 X-38.2722 Y25.4864 
G01 X-38.2722 Y25.3136 
G01 X-38.2992 Y25.1429 
G01 X-38.3526 Y24.9786 
G01 X-38.4310 Y24.8246 
G01 X-38.5326 Y24.6848 
G01 X-38.6548 Y24.5626 
G01 X-38.7946 Y24.4610 
G01 X-38.9486 Y24.3826 
G01 X-39.1129 Y24.3292 
G01 X-39.2836 Y24.3022 
G01 X-39.4564 Y24.3022 
G01 X-39.6271 Y24.3292 
G01 X-39.7914 Y24.3826 
G01 X-39.9454 Y24.4610 
G01 X-40.0852 Y24.5626 
G01 X-40.2074 Y24.6848 
G01 X-40.3090 Y24.8246 
G01 X-40.3874 Y24.9786 
G01 X-40.4408 Y25.1429 
G01 X-40.4678 Y25.3136 
G01 X-40.4678 Y25.4864 
G01 X-40.4408 Y25.6571 
G01 X-40.4117 Y25.7467 
G01 X-41.8596 Y27.1946 
G01 X-45.2624 Y27.1946 
G01 X-46.2446 Y26.2124 
G01 X-46.2446 Y24.5876 
G01 X-39.2613 Y17.6043 
G01 X-39.1129 Y17.5808 
G01 X-38.9486 Y17.5274 
G01 X-38.7946 Y17.4490 
G01 X-38.6548 Y17.3474 
G01 X-38.5326 Y17.2252 
G01 X-38.4310 Y17.0854 
G01 X-38.3526 Y16.9314 
G01 X-38.2992 Y16.7671 
G01 X-38.2722 Y16.5964 
G01 X-38.2722 Y16.4236 
G01 X-38.2992 Y16.2529 
G01 X-38.3526 Y16.0886 
G01 X-38.4310 Y15.9346 
G01 X-38.5326 Y15.7948 
G01 X-38.6548 Y15.6726 
G01 X-38.7946 Y15.5710 
G01 X-38.9486 Y15.4926 
G01 X-39.1129 Y15.4392 
G01 X-39.2836 Y15.4122 
G01 X-39.4564 Y15.4122 
G01 X-39.6271 Y15.4392 
G01 X-39.7914 Y15.4926 
G01 X-39.9454 Y15.5710 
G01 X-40.0852 Y15.6726 
G01 X-40.2074 Y15.7948 
G01 X-40.3090 Y15.9346 
G01 X-40.3874 Y16.0886 
G01 X-40.4408 Y16.2529 
G01 X-40.4678 Y16.4236 
G01 X-40.4678 Y16.5964 
G01 X-40.4408 Y16.7671 
G01 X-40.3874 Y16.9314 
G01 X-40.3090 Y17.0854 
G01 X-40.2347 Y17.1877 
G01 X-47.0378 Y23.9908 
G01 X-47.1292 Y24.0822 
G01 X-47.1939 Y24.1943 
G01 X-47.2274 Y24.3193 
G01 X-47.2274 Y26.4807 
G01 X-47.1939 Y26.6057 
G01 X-47.1292 Y26.7178 
G01 X-45.8592 Y27.9878 
G01 X-45.7677 Y28.0792 
G01 X-45.6557 Y28.1439 
G01 X-45.5307 Y28.1774 
G01 X-41.8934 Y28.1774 
G01 X-41.8934 Y33.0847 
G01 X-41.8599 Y33.2097 
G01 X-41.7952 Y33.3218 
G01 X-39.5092 Y35.6078 
G01 X-39.4178 Y35.6992 
G01 X-39.3057 Y35.7639 
G01 X-39.1807 Y35.7974 
G01 X-37.0193 Y35.7974 
G01 X-36.8943 Y35.7639 
G01 X-36.7822 Y35.6992 
G01 X-31.1942 Y30.1112 
G01 X-31.1028 Y30.0198 
G01 X-31.0381 Y29.9077 
G01 X-31.0046 Y29.7827 
G01 X-31.0046 Y23.3176 
G01 X-30.0224 Y22.3354 
G01 X-21.0316 Y22.3354 
G01 X-18.7785 Y24.5885 
G01 X-18.7190 Y24.7054 
G00 Z2.5400  
G00 X-30.3078 Y34.2036 
G01 Z-0.1778 F254   
G01 X-30.3078 Y34.3764 F508   
G01 X-30.2808 Y34.5471 
G01 X-30.2274 Y34.7114 
G01 X-30.1490 Y34.8654 
G01 X-30.0474 Y35.0052 
G01 X-29.9252 Y35.1274 
G01 X-29.7854 Y35.2290 
G01 X-29.7014 Y35.2717 
G01 X-29.7014 Y35.8644 
G01 X-34.3377 Y40.5008 
G01 X-34.4292 Y40.5922 
G01 X-34.4939 Y40.7043 
G01 X-34.5274 Y40.8293 
G01 X-34.5274 Y48.4561 
G01 X-34.5471 Y48.4592 
G01 X-34.7114 Y48.5126 
G01 X-34.8654 Y48.5910 
G01 X-35.0052 Y48.6926 
G01 X-35.1274 Y48.8148 
G01 X-35.2290 Y48.9546 
G01 X-35.3074 Y49.1086 
G01 X-35.3608 Y49.2729 
G01 X-35.3878 Y49.4436 
G01 X-35.3878 Y49.6164 
G01 X-35.3608 Y49.7871 
G01 X-35.3074 Y49.9514 
G01 X-35.2290 Y50.1054 
G01 X-35.1274 Y50.2452 
G01 X-35.0052 Y50.3674 
G01 X-34.8654 Y50.4690 
G01 X-34.7814 Y50.5117 
G01 X-34.7814 Y57.4383 
G01 X-34.8654 Y57.4810 
G01 X-35.0052 Y57.5826 
G01 X-35.1274 Y57.7048 
G01 X-35.2290 Y57.8446 
G01 X-35.3074 Y57.9986 
G01 X-35.3608 Y58.1629 
G01 X-35.3878 Y58.3336 
G01 X-35.3878 Y58.5064 
G01 X-35.3608 Y58.6771 
G01 X-35.3074 Y58.8414 
G01 X-35.2290 Y58.9954 
G01 X-35.1274 Y59.1352 
G01 X-35.0052 Y59.2574 
G01 X-34.8654 Y59.3590 
G01 X-34.7114 Y59.4374 
G01 X-34.5471 Y59.4908 
G01 X-34.3764 Y59.5178 
G01 X-34.2036 Y59.5178 
G01 X-34.0329 Y59.4908 
G01 X-33.9433 Y59.4617 
G01 X-32.0517 Y61.3532 
G01 X-31.9397 Y61.4179 
G01 X-31.8147 Y61.4514 
G01 X-19.2393 Y61.4514 
G01 X-19.1143 Y61.4179 
G01 X-19.0022 Y61.3532 
G01 X-18.9108 Y61.2618 
G01 X-17.3867 Y59.7378 
G01 X-17.3221 Y59.6257 
G01 X-17.2886 Y59.5007 
G01 X-17.2886 Y50.5117 
G01 X-17.2046 Y50.4690 
G01 X-17.0648 Y50.3674 
G01 X-16.9426 Y50.2452 
G01 X-16.8410 Y50.1054 
G01 X-16.7626 Y49.9514 
G01 X-16.7092 Y49.7871 
G01 X-16.6822 Y49.6164 
G01 X-16.6822 Y49.4436 
G01 X-16.7092 Y49.2729 
G01 X-16.7626 Y49.1086 
G01 X-16.8410 Y48.9546 
G01 X-16.9426 Y48.8148 
G01 X-17.0648 Y48.6926 
G01 X-17.2046 Y48.5910 
G01 X-17.3586 Y48.5126 
G01 X-17.5229 Y48.4592 
G01 X-17.6936 Y48.4322 
G01 X-17.8664 Y48.4322 
G01 X-18.0371 Y48.4592 
G01 X-18.2014 Y48.5126 
G01 X-18.3554 Y48.5910 
G01 X-18.4952 Y48.6926 
G01 X-18.6174 Y48.8148 
G01 X-18.7190 Y48.9546 
G01 X-18.7974 Y49.1086 
G01 X-18.8508 Y49.2729 
G01 X-18.8778 Y49.4436 
G01 X-18.8778 Y49.6164 
G01 X-18.8508 Y49.7871 
G01 X-18.7974 Y49.9514 
G01 X-18.7190 Y50.1054 
G01 X-18.6174 Y50.2452 
G01 X-18.4952 Y50.3674 
G01 X-18.3554 Y50.4690 
G01 X-18.2714 Y50.5117 
G01 X-18.2714 Y59.2324 
G01 X-19.5076 Y60.4686 
G01 X-31.5464 Y60.4686 
G01 X-33.2483 Y58.7667 
G01 X-33.2192 Y58.6771 
G01 X-33.1922 Y58.5064 
G01 X-33.1922 Y58.3336 
G01 X-33.2192 Y58.1629 
G01 X-33.2726 Y57.9986 
G01 X-33.3510 Y57.8446 
G01 X-33.4526 Y57.7048 
G01 X-33.5748 Y57.5826 
G01 X-33.7146 Y57.4810 
G01 X-33.7986 Y57.4383 
G01 X-33.7986 Y50.5117 
G01 X-33.7146 Y50.4690 
G01 X-33.5748 Y50.3674 
G01 X-33.4526 Y50.2452 
G01 X-33.3510 Y50.1054 
G01 X-33.2726 Y49.9514 
G01 X-33.2192 Y49.7871 
G01 X-33.1922 Y49.6164 
G01 X-33.1922 Y49.4436 
G01 X-33.2192 Y49.2729 
G01 X-33.2726 Y49.1086 
G01 X-33.3510 Y48.9546 
G01 X-33.4526 Y48.8148 
G01 X-33.5446 Y48.7229 
G01 X-33.5446 Y41.0976 
G01 X-28.8168 Y36.3698 
G01 X-28.7521 Y36.2577 
G01 X-28.7186 Y36.1327 
G01 X-28.7186 Y35.2717 
G01 X-28.6346 Y35.2290 
G01 X-28.4948 Y35.1274 
G01 X-28.3726 Y35.0052 
G01 X-28.2710 Y34.8654 
G01 X-28.1926 Y34.7114 
G01 X-28.1392 Y34.5471 
G01 X-28.1122 Y34.3764 
G01 X-28.1122 Y34.2036 
G01 X-28.1392 Y34.0329 
G01 X-28.1926 Y33.8686 
G01 X-28.2710 Y33.7146 
G01 X-28.3726 Y33.5748 
G01 X-28.4948 Y33.4526 
G01 X-28.6346 Y33.3510 
G01 X-28.7886 Y33.2726 
G01 X-28.9529 Y33.2192 
G01 X-29.1236 Y33.1922 
G01 X-29.2964 Y33.1922 
G01 X-29.4671 Y33.2192 
G01 X-29.6314 Y33.2726 
G01 X-29.7854 Y33.3510 
G01 X-29.9252 Y33.4526 
G01 X-30.0474 Y33.5748 
G01 X-30.1490 Y33.7146 
G01 X-30.2274 Y33.8686 
G01 X-30.2808 Y34.0329 
G01 X-30.3078 Y34.2036 
G00 Z2.5400  
G00 X-63.3278 Y25.3136 
G01 Z-0.1778 F254   
G01 X-63.3278 Y25.4864 F508   
G01 X-63.3008 Y25.6571 
G01 X-63.2474 Y25.8214 
G01 X-63.1690 Y25.9754 
G01 X-63.0674 Y26.1152 
G01 X-62.9452 Y26.2374 
G01 X-62.8054 Y26.3390 
G01 X-62.6514 Y26.4174 
G01 X-62.4871 Y26.4708 
G01 X-62.3164 Y26.4978 
G01 X-62.1436 Y26.4978 
G01 X-61.9729 Y26.4708 
G01 X-61.8086 Y26.4174 
G01 X-61.6546 Y26.3390 
G01 X-61.5148 Y26.2374 
G01 X-61.3926 Y26.1152 
G01 X-61.2910 Y25.9754 
G01 X-61.2126 Y25.8214 
G01 X-61.1592 Y25.6571 
G01 X-61.1322 Y25.4864 
G01 X-61.1322 Y25.3136 
G01 X-61.1592 Y25.1429 
G01 X-61.2126 Y24.9786 
G01 X-61.2910 Y24.8246 
G01 X-61.3926 Y24.6848 
G01 X-61.5148 Y24.5626 
G01 X-61.6546 Y24.4610 
G01 X-61.7386 Y24.4183 
G01 X-61.7386 Y22.5556 
G01 X-55.5782 Y16.3952 
G01 X-55.4868 Y16.3038 
G01 X-55.4221 Y16.1917 
G01 X-55.3886 Y16.0667 
G01 X-55.3886 Y13.7638 
G01 X-55.2663 Y13.7015 
G01 X-55.1172 Y13.5931 
G01 X-54.9869 Y13.4628 
G01 X-54.8785 Y13.3137 
G01 X-54.7948 Y13.1495 
G01 X-54.7379 Y12.9742 
G01 X-54.7091 Y12.7922 
G01 X-54.7091 Y12.6078 
G01 X-54.7379 Y12.4258 
G01 X-54.7948 Y12.2505 
G01 X-54.8785 Y12.0863 
G01 X-54.9869 Y11.9372 
G01 X-55.1172 Y11.8069 
G01 X-55.2663 Y11.6985 
G01 X-55.4305 Y11.6148 
G01 X-55.6058 Y11.5579 
G01 X-55.7878 Y11.5291 
G01 X-55.9722 Y11.5291 
G01 X-56.1542 Y11.5579 
G01 X-56.3295 Y11.6148 
G01 X-56.4937 Y11.6985 
G01 X-56.6428 Y11.8069 
G01 X-56.7731 Y11.9372 
G01 X-56.8815 Y12.0863 
G01 X-56.9652 Y12.2505 
G01 X-57.0221 Y12.4258 
G01 X-57.0509 Y12.6078 
G01 X-57.0509 Y12.7922 
G01 X-57.0221 Y12.9742 
G01 X-56.9652 Y13.1495 
G01 X-56.8815 Y13.3137 
G01 X-56.7731 Y13.4628 
G01 X-56.6428 Y13.5931 
G01 X-56.4937 Y13.7015 
G01 X-56.3714 Y13.7638 
G01 X-56.3714 Y15.7984 
G01 X-62.6232 Y22.0502 
G01 X-62.6879 Y22.1623 
G01 X-62.7214 Y22.2873 
G01 X-62.7214 Y24.4183 
G01 X-62.8054 Y24.4610 
G01 X-62.9452 Y24.5626 
G01 X-63.0674 Y24.6848 
G01 X-63.1690 Y24.8246 
G01 X-63.2474 Y24.9786 
G01 X-63.3008 Y25.1429 
G01 X-63.3278 Y25.3136 
G00 Z2.5400  
G00 X-68.4078 Y38.0136 
G01 Z-0.1778 F254   
G01 X-68.4078 Y38.1864 F508   
G01 X-68.3808 Y38.3571 
G01 X-68.3274 Y38.5214 
G01 X-68.2490 Y38.6754 
G01 X-68.1474 Y38.8152 
G01 X-68.0252 Y38.9374 
G01 X-67.8854 Y39.0390 
G01 X-67.8014 Y39.0817 
G01 X-67.8014 Y42.4827 
G01 X-67.7679 Y42.6077 
G01 X-67.7032 Y42.7198 
G01 X-66.7854 Y43.6376 
G01 X-66.7854 Y49.0386 
G01 X-67.5983 Y49.0386 
G01 X-67.6410 Y48.9546 
G01 X-67.7426 Y48.8148 
G01 X-67.8648 Y48.6926 
G01 X-68.0046 Y48.5910 
G01 X-68.1586 Y48.5126 
G01 X-68.3229 Y48.4592 
G01 X-68.4936 Y48.4322 
G01 X-68.6664 Y48.4322 
G01 X-68.8371 Y48.4592 
G01 X-69.0014 Y48.5126 
G01 X-69.1554 Y48.5910 
G01 X-69.2952 Y48.6926 
G01 X-69.4174 Y48.8148 
G01 X-69.5190 Y48.9546 
G01 X-69.5974 Y49.1086 
G01 X-69.6508 Y49.2729 
G01 X-69.6778 Y49.4436 
G01 X-69.6778 Y49.6164 
G01 X-69.6508 Y49.7871 
G01 X-69.5974 Y49.9514 
G01 X-69.5190 Y50.1054 
G01 X-69.4174 Y50.2452 
G01 X-69.2952 Y50.3674 
G01 X-69.1554 Y50.4690 
G01 X-69.0014 Y50.5474 
G01 X-68.8371 Y50.6008 
G01 X-68.6664 Y50.6278 
G01 X-68.4936 Y50.6278 
G01 X-68.3229 Y50.6008 
G01 X-68.1586 Y50.5474 
G01 X-68.0046 Y50.4690 
G01 X-67.8648 Y50.3674 
G01 X-67.7426 Y50.2452 
G01 X-67.6410 Y50.1054 
G01 X-67.5983 Y50.0214 
G01 X-63.2117 Y50.0214 
G01 X-63.1690 Y50.1054 
G01 X-63.0674 Y50.2452 
G01 X-62.9452 Y50.3674 
G01 X-62.8054 Y50.4690 
G01 X-62.6514 Y50.5474 
G01 X-62.4871 Y50.6008 
G01 X-62.3164 Y50.6278 
G01 X-62.1436 Y50.6278 
G01 X-61.9729 Y50.6008 
G01 X-61.8086 Y50.5474 
G01 X-61.6546 Y50.4690 
G01 X-61.5148 Y50.3674 
G01 X-61.3926 Y50.2452 
G01 X-61.2910 Y50.1054 
G01 X-61.2126 Y49.9514 
G01 X-61.1592 Y49.7871 
G01 X-61.1322 Y49.6164 
G01 X-61.1322 Y49.4436 
G01 X-61.1592 Y49.2729 
G01 X-61.2126 Y49.1086 
G01 X-61.2910 Y48.9546 
G01 X-61.3926 Y48.8148 
G01 X-61.5148 Y48.6926 
G01 X-61.6546 Y48.5910 
G01 X-61.8086 Y48.5126 
G01 X-61.9729 Y48.4592 
G01 X-62.1436 Y48.4322 
G01 X-62.3164 Y48.4322 
G01 X-62.4871 Y48.4592 
G01 X-62.6514 Y48.5126 
G01 X-62.8054 Y48.5910 
G01 X-62.9452 Y48.6926 
G01 X-63.0674 Y48.8148 
G01 X-63.1690 Y48.9546 
G01 X-63.2117 Y49.0386 
G01 X-65.8026 Y49.0386 
G01 X-65.8026 Y43.3693 
G01 X-65.8361 Y43.2443 
G01 X-65.9008 Y43.1322 
G01 X-65.9922 Y43.0408 
G01 X-66.8186 Y42.2144 
G01 X-66.8186 Y39.0817 
G01 X-66.7346 Y39.0390 
G01 X-66.5948 Y38.9374 
G01 X-66.4726 Y38.8152 
G01 X-66.3710 Y38.6754 
G01 X-66.2926 Y38.5214 
G01 X-66.2392 Y38.3571 
G01 X-66.2122 Y38.1864 
G01 X-66.2122 Y38.0136 
G01 X-66.2392 Y37.8429 
G01 X-66.2926 Y37.6786 
G01 X-66.3710 Y37.5246 
G01 X-66.4726 Y37.3848 
G01 X-66.5948 Y37.2626 
G01 X-66.7346 Y37.1610 
G01 X-66.8886 Y37.0826 
G01 X-67.0529 Y37.0292 
G01 X-67.2236 Y37.0022 
G01 X-67.3964 Y37.0022 
G01 X-67.5671 Y37.0292 
G01 X-67.7314 Y37.0826 
G01 X-67.8854 Y37.1610 
G01 X-68.0252 Y37.2626 
G01 X-68.1474 Y37.3848 
G01 X-68.2490 Y37.5246 
G01 X-68.3274 Y37.6786 
G01 X-68.3808 Y37.8429 
G01 X-68.4078 Y38.0136 
G00 Z2.5400  
G00 X-78.5678 Y38.0136 
G01 Z-0.1778 F254   
G01 X-78.5678 Y38.1864 F508   
G01 X-78.5408 Y38.3571 
G01 X-78.5117 Y38.4467 
G01 X-78.8792 Y38.8142 
G01 X-78.9439 Y38.9263 
G01 X-78.9774 Y39.0513 
G01 X-78.9774 Y45.5307 
G01 X-78.9439 Y45.6557 
G01 X-78.8792 Y45.7677 
G01 X-78.7878 Y45.8592 
G01 X-77.2638 Y47.3832 
G01 X-77.2180 Y47.4097 
G01 X-77.1390 Y47.5654 
G01 X-77.0374 Y47.7052 
G01 X-76.9152 Y47.8274 
G01 X-76.7754 Y47.9290 
G01 X-76.6214 Y48.0074 
G01 X-76.4571 Y48.0608 
G01 X-76.2864 Y48.0878 
G01 X-76.1136 Y48.0878 
G01 X-75.9429 Y48.0608 
G01 X-75.7786 Y48.0074 
G01 X-75.6246 Y47.9290 
G01 X-75.4848 Y47.8274 
G01 X-75.3626 Y47.7052 
G01 X-75.2610 Y47.5654 
G01 X-75.1826 Y47.4114 
G01 X-75.1292 Y47.2471 
G01 X-75.1022 Y47.0764 
G01 X-75.1022 Y46.9036 
G01 X-75.1292 Y46.7329 
G01 X-75.1826 Y46.5686 
G01 X-75.2610 Y46.4146 
G01 X-75.3626 Y46.2748 
G01 X-75.4848 Y46.1526 
G01 X-75.6246 Y46.0510 
G01 X-75.7786 Y45.9726 
G01 X-75.9429 Y45.9192 
G01 X-76.1136 Y45.8922 
G01 X-76.2864 Y45.8922 
G01 X-76.4571 Y45.9192 
G01 X-76.6214 Y45.9726 
G01 X-76.7754 Y46.0510 
G01 X-76.9152 Y46.1526 
G01 X-77.0098 Y46.2472 
G01 X-77.9946 Y45.2624 
G01 X-77.9946 Y39.3196 
G01 X-77.8167 Y39.1417 
G01 X-77.7271 Y39.1708 
G01 X-77.5564 Y39.1978 
G01 X-77.3836 Y39.1978 
G01 X-77.2129 Y39.1708 
G01 X-77.0486 Y39.1174 
G01 X-76.8946 Y39.0390 
G01 X-76.7548 Y38.9374 
G01 X-76.6326 Y38.8152 
G01 X-76.5310 Y38.6754 
G01 X-76.4526 Y38.5214 
G01 X-76.3992 Y38.3571 
G01 X-76.3722 Y38.1864 
G01 X-76.3722 Y38.0136 
G01 X-76.3992 Y37.8429 
G01 X-76.4526 Y37.6786 
G01 X-76.5310 Y37.5246 
G01 X-76.6326 Y37.3848 
G01 X-76.7548 Y37.2626 
G01 X-76.8946 Y37.1610 
G01 X-76.9786 Y37.1183 
G01 X-76.9786 Y36.0176 
G01 X-69.7108 Y28.7498 
G01 X-69.6461 Y28.6377 
G01 X-69.6126 Y28.5127 
G01 X-69.6126 Y25.8576 
G01 X-66.9168 Y23.1618 
G01 X-66.8521 Y23.0497 
G01 X-66.8186 Y22.9247 
G01 X-66.8186 Y18.7617 
G01 X-66.7346 Y18.7190 
G01 X-66.5948 Y18.6174 
G01 X-66.4726 Y18.4952 
G01 X-66.3710 Y18.3554 
G01 X-66.2926 Y18.2014 
G01 X-66.2392 Y18.0371 
G01 X-66.2122 Y17.8664 
G01 X-66.2122 Y17.6936 
G01 X-66.2392 Y17.5229 
G01 X-66.2926 Y17.3586 
G01 X-66.3710 Y17.2046 
G01 X-66.4726 Y17.0648 
G01 X-66.5948 Y16.9426 
G01 X-66.7346 Y16.8410 
G01 X-66.8886 Y16.7626 
G01 X-67.0529 Y16.7092 
G01 X-67.2236 Y16.6822 
G01 X-67.3964 Y16.6822 
G01 X-67.5671 Y16.7092 
G01 X-67.7314 Y16.7626 
G01 X-67.8854 Y16.8410 
G01 X-68.0252 Y16.9426 
G01 X-68.1474 Y17.0648 
G01 X-68.2490 Y17.2046 
G01 X-68.3274 Y17.3586 
G01 X-68.3808 Y17.5229 
G01 X-68.4078 Y17.6936 
G01 X-68.4078 Y17.8664 
G01 X-68.3808 Y18.0371 
G01 X-68.3274 Y18.2014 
G01 X-68.2490 Y18.3554 
G01 X-68.1474 Y18.4952 
G01 X-68.0252 Y18.6174 
G01 X-67.8854 Y18.7190 
G01 X-67.8014 Y18.7617 
G01 X-67.8014 Y22.6564 
G01 X-70.4057 Y25.2608 
G01 X-70.4972 Y25.3522 
G01 X-70.5619 Y25.4643 
G01 X-70.5954 Y25.5893 
G01 X-70.5954 Y28.2444 
G01 X-77.7717 Y35.4207 
G01 X-77.8632 Y35.5122 
G01 X-77.9279 Y35.6243 
G01 X-77.9614 Y35.7493 
G01 X-77.9614 Y37.1183 
G01 X-78.0454 Y37.1610 
G01 X-78.1852 Y37.2626 
G01 X-78.3074 Y37.3848 
G01 X-78.4090 Y37.5246 
G01 X-78.4874 Y37.6786 
G01 X-78.5408 Y37.8429 
G01 X-78.5678 Y38.0136 
G00 Z2.5400  
G00 X-19.0714 Y41.7284 
G01 Z-0.1778 F254   
G01 X-19.0714 Y41.9316 F508   
G01 X-19.0396 Y42.1324 
G01 X-18.9768 Y42.3257 
G01 X-18.9478 Y42.3828 
G01 X-27.3050 Y50.7400 
G01 X-28.1683 Y49.8767 
G01 X-28.1392 Y49.7871 
G01 X-28.1122 Y49.6164 
G01 X-28.1122 Y49.4436 
G01 X-28.1392 Y49.2729 
G01 X-28.1926 Y49.1086 
G01 X-28.2710 Y48.9546 
G01 X-28.3726 Y48.8148 
G01 X-28.4948 Y48.6926 
G01 X-28.6346 Y48.5910 
G01 X-28.7886 Y48.5126 
G01 X-28.9529 Y48.4592 
G01 X-29.1236 Y48.4322 
G01 X-29.2964 Y48.4322 
G01 X-29.4671 Y48.4592 
G01 X-29.6314 Y48.5126 
G01 X-29.7854 Y48.5910 
G01 X-29.9252 Y48.6926 
G01 X-30.0474 Y48.8148 
G01 X-30.1490 Y48.9546 
G01 X-30.2274 Y49.1086 
G01 X-30.2808 Y49.2729 
G01 X-30.3078 Y49.4436 
G01 X-30.3078 Y49.6164 
G01 X-30.2808 Y49.7871 
G01 X-30.2274 Y49.9514 
G01 X-30.1490 Y50.1054 
G01 X-30.0474 Y50.2452 
G01 X-29.9252 Y50.3674 
G01 X-29.7854 Y50.4690 
G01 X-29.6314 Y50.5474 
G01 X-29.4671 Y50.6008 
G01 X-29.2964 Y50.6278 
G01 X-29.1236 Y50.6278 
G01 X-28.9529 Y50.6008 
G01 X-28.8633 Y50.5717 
G01 X-27.6982 Y51.7368 
G01 X-27.6068 Y51.8282 
G01 X-21.5668 Y57.8682 
G01 X-21.5817 Y57.8974 
G01 X-21.6479 Y58.1012 
G01 X-21.6814 Y58.3129 
G01 X-21.6814 Y58.5271 
G01 X-21.6479 Y58.7388 
G01 X-21.5817 Y58.9426 
G01 X-21.4844 Y59.1335 
G01 X-21.3584 Y59.3069 
G01 X-21.2069 Y59.4584 
G01 X-21.0336 Y59.5844 
G01 X-20.8426 Y59.6817 
G01 X-20.6388 Y59.7479 
G01 X-20.4271 Y59.7814 
G01 X-20.2128 Y59.7814 
G01 X-20.0012 Y59.7479 
G01 X-19.7974 Y59.6817 
G01 X-19.6064 Y59.5844 
G01 X-19.4331 Y59.4584 
G01 X-19.2815 Y59.3069 
G01 X-19.1556 Y59.1335 
G01 X-19.0583 Y58.9426 
G01 X-18.9921 Y58.7388 
G01 X-18.9586 Y58.5271 
G01 X-18.9586 Y58.3129 
G01 X-18.9921 Y58.1012 
G01 X-19.0583 Y57.8974 
G01 X-19.1556 Y57.7064 
G01 X-19.2815 Y57.5331 
G01 X-19.4331 Y57.3816 
G01 X-19.6064 Y57.2556 
G01 X-19.7974 Y57.1583 
G01 X-20.0012 Y57.0921 
G01 X-20.2128 Y57.0586 
G01 X-20.4271 Y57.0586 
G01 X-20.6388 Y57.0921 
G01 X-20.8426 Y57.1583 
G01 X-20.8718 Y57.1732 
G01 X-26.6100 Y51.4350 
G01 X-18.2200 Y43.0449 
G01 X-18.0824 Y43.0896 
G01 X-17.8816 Y43.1214 
G01 X-17.6784 Y43.1214 
G01 X-17.4776 Y43.0896 
G01 X-17.2843 Y43.0268 
G01 X-17.1031 Y42.9345 
G01 X-16.9387 Y42.8151 
G01 X-16.7949 Y42.6713 
G01 X-16.6755 Y42.5069 
G01 X-16.5832 Y42.3257 
G01 X-16.5204 Y42.1324 
G01 X-16.4886 Y41.9316 
G01 X-16.4886 Y41.7284 
G01 X-16.5204 Y41.5276 
G01 X-16.5832 Y41.3343 
G01 X-16.6755 Y41.1531 
G01 X-16.7949 Y40.9887 
G01 X-16.9387 Y40.8449 
G01 X-17.1031 Y40.7255 
G01 X-17.2843 Y40.6332 
G01 X-17.4776 Y40.5704 
G01 X-17.6784 Y40.5386 
G01 X-17.8816 Y40.5386 
G01 X-18.0824 Y40.5704 
G01 X-18.2757 Y40.6332 
G01 X-18.4569 Y40.7255 
G01 X-18.6213 Y40.8449 
G01 X-18.7651 Y40.9887 
G01 X-18.8845 Y41.1531 
G01 X-18.9768 Y41.3343 
G01 X-19.0396 Y41.5276 
G01 X-19.0714 Y41.7284 
G00 Z2.5400  
G00 X-19.0714 Y36.7284 
G01 Z-0.1778 F254   
G01 X-19.0714 Y36.9316 F508   
G01 X-19.0396 Y37.1324 
G01 X-18.9768 Y37.3257 
G01 X-18.8845 Y37.5069 
G01 X-18.7651 Y37.6713 
G01 X-18.6213 Y37.8151 
G01 X-18.4569 Y37.9345 
G01 X-18.2757 Y38.0268 
G01 X-18.0824 Y38.0896 
G01 X-17.8816 Y38.1214 
G01 X-17.6784 Y38.1214 
G01 X-17.4776 Y38.0896 
G01 X-17.2843 Y38.0268 
G01 X-17.1031 Y37.9345 
G01 X-16.9387 Y37.8151 
G01 X-16.7949 Y37.6713 
G01 X-16.6755 Y37.5069 
G01 X-16.5832 Y37.3257 
G01 X-16.5204 Y37.1324 
G01 X-16.4886 Y36.9316 
G01 X-16.4886 Y36.7284 
G01 X-16.5204 Y36.5276 
G01 X-16.5832 Y36.3343 
G01 X-16.6755 Y36.1531 
G01 X-16.7949 Y35.9887 
G01 X-16.9387 Y35.8449 
G01 X-17.1031 Y35.7255 
G01 X-17.2843 Y35.6332 
G01 X-17.2886 Y35.6318 
G01 X-17.2886 Y33.0282 
G01 X-17.2843 Y33.0268 
G01 X-17.1031 Y32.9345 
G01 X-16.9387 Y32.8151 
G01 X-16.7949 Y32.6713 
G01 X-16.6755 Y32.5069 
G01 X-16.5832 Y32.3257 
G01 X-16.5204 Y32.1324 
G01 X-16.4886 Y31.9316 
G01 X-16.4886 Y31.7284 
G01 X-16.5204 Y31.5276 
G01 X-16.5832 Y31.3343 
G01 X-16.6755 Y31.1531 
G01 X-16.7949 Y30.9887 
G01 X-16.9387 Y30.8449 
G01 X-17.1031 Y30.7255 
G01 X-17.2843 Y30.6332 
G01 X-17.4776 Y30.5704 
G01 X-17.6784 Y30.5386 
G01 X-17.8816 Y30.5386 
G01 X-18.0824 Y30.5704 
G01 X-18.2200 Y30.6151 
G01 X-19.2918 Y29.5432 
G01 X-19.3832 Y29.4518 
G01 X-25.0982 Y23.7368 
G01 X-25.2103 Y23.6721 
G01 X-25.3353 Y23.6386 
G01 X-28.2283 Y23.6386 
G01 X-28.2710 Y23.5546 
G01 X-28.3726 Y23.4148 
G01 X-28.4948 Y23.2926 
G01 X-28.6346 Y23.1910 
G01 X-28.7886 Y23.1126 
G01 X-28.9529 Y23.0592 
G01 X-29.1236 Y23.0322 
G01 X-29.2964 Y23.0322 
G01 X-29.4671 Y23.0592 
G01 X-29.6314 Y23.1126 
G01 X-29.7854 Y23.1910 
G01 X-29.9252 Y23.2926 
G01 X-30.0474 Y23.4148 
G01 X-30.1490 Y23.5546 
G01 X-30.2274 Y23.7086 
G01 X-30.2808 Y23.8729 
G01 X-30.3078 Y24.0436 
G01 X-30.3078 Y24.2164 
G01 X-30.2808 Y24.3871 
G01 X-30.2274 Y24.5514 
G01 X-30.1490 Y24.7054 
G01 X-30.0474 Y24.8452 
G01 X-29.9252 Y24.9674 
G01 X-29.7854 Y25.0690 
G01 X-29.6314 Y25.1474 
G01 X-29.4671 Y25.2008 
G01 X-29.2964 Y25.2278 
G01 X-29.1236 Y25.2278 
G01 X-28.9529 Y25.2008 
G01 X-28.7886 Y25.1474 
G01 X-28.6346 Y25.0690 
G01 X-28.4948 Y24.9674 
G01 X-28.3726 Y24.8452 
G01 X-28.2710 Y24.7054 
G01 X-28.2283 Y24.6214 
G01 X-25.6036 Y24.6214 
G01 X-20.3800 Y29.8450 
G01 X-28.8633 Y38.3283 
G01 X-28.9529 Y38.2992 
G01 X-29.1236 Y38.2722 
G01 X-29.2964 Y38.2722 
G01 X-29.4671 Y38.2992 
G01 X-29.6314 Y38.3526 
G01 X-29.7854 Y38.4310 
G01 X-29.9252 Y38.5326 
G01 X-30.0474 Y38.6548 
G01 X-30.1490 Y38.7946 
G01 X-30.2274 Y38.9486 
G01 X-30.2808 Y39.1129 
G01 X-30.3078 Y39.2836 
G01 X-30.3078 Y39.4564 
G01 X-30.2808 Y39.6271 
G01 X-30.2274 Y39.7914 
G01 X-30.1490 Y39.9454 
G01 X-30.0474 Y40.0852 
G01 X-29.9252 Y40.2074 
G01 X-29.7854 Y40.3090 
G01 X-29.6314 Y40.3874 
G01 X-29.4671 Y40.4408 
G01 X-29.2964 Y40.4678 
G01 X-29.1236 Y40.4678 
G01 X-28.9529 Y40.4408 
G01 X-28.7886 Y40.3874 
G01 X-28.6346 Y40.3090 
G01 X-28.4948 Y40.2074 
G01 X-28.3726 Y40.0852 
G01 X-28.2710 Y39.9454 
G01 X-28.1926 Y39.7914 
G01 X-28.1392 Y39.6271 
G01 X-28.1122 Y39.4564 
G01 X-28.1122 Y39.2836 
G01 X-28.1392 Y39.1129 
G01 X-28.1683 Y39.0233 
G01 X-19.6850 Y30.5400 
G01 X-18.9478 Y31.2772 
G01 X-18.9768 Y31.3343 
G01 X-19.0396 Y31.5276 
G01 X-19.0714 Y31.7284 
G01 X-19.0714 Y31.9316 
G01 X-19.0396 Y32.1324 
G01 X-18.9768 Y32.3257 
G01 X-18.8845 Y32.5069 
G01 X-18.7651 Y32.6713 
G01 X-18.6213 Y32.8151 
G01 X-18.4569 Y32.9345 
G01 X-18.2757 Y33.0268 
G01 X-18.2714 Y33.0282 
G01 X-18.2714 Y35.6318 
G01 X-18.2757 Y35.6332 
G01 X-18.4569 Y35.7255 
G01 X-18.6213 Y35.8449 
G01 X-18.7651 Y35.9887 
G01 X-18.8845 Y36.1531 
G01 X-18.9768 Y36.3343 
G01 X-19.0396 Y36.5276 
G01 X-19.0714 Y36.7284 
G00 Z2.5400  
G00 X-57.0509 Y45.6278 
G01 Z-0.1778 F254   
G01 X-57.0509 Y45.8122 F508   
G01 X-57.0221 Y45.9942 
G01 X-56.9652 Y46.1695 
G01 X-56.8815 Y46.3337 
G01 X-56.7731 Y46.4828 
G01 X-56.6428 Y46.6131 
G01 X-56.4937 Y46.7215 
G01 X-56.3714 Y46.7838 
G01 X-56.3714 Y48.5644 
G01 X-62.6232 Y54.8162 
G01 X-62.6879 Y54.9283 
G01 X-62.7214 Y55.0533 
G01 X-62.7214 Y58.7083 
G01 X-62.8054 Y58.7510 
G01 X-62.9452 Y58.8526 
G01 X-63.0674 Y58.9748 
G01 X-63.1690 Y59.1146 
G01 X-63.2474 Y59.2686 
G01 X-63.3008 Y59.4329 
G01 X-63.3278 Y59.6036 
G01 X-63.3278 Y59.7764 
G01 X-63.3008 Y59.9471 
G01 X-63.2474 Y60.1114 
G01 X-63.1690 Y60.2654 
G01 X-63.0674 Y60.4052 
G01 X-62.9452 Y60.5274 
G01 X-62.8054 Y60.6290 
G01 X-62.6514 Y60.7074 
G01 X-62.4871 Y60.7608 
G01 X-62.3164 Y60.7878 
G01 X-62.1436 Y60.7878 
G01 X-61.9729 Y60.7608 
G01 X-61.8086 Y60.7074 
G01 X-61.6546 Y60.6290 
G01 X-61.5148 Y60.5274 
G01 X-61.3926 Y60.4052 
G01 X-61.2910 Y60.2654 
G01 X-61.2126 Y60.1114 
G01 X-61.1592 Y59.9471 
G01 X-61.1322 Y59.7764 
G01 X-61.1322 Y59.6036 
G01 X-61.1592 Y59.4329 
G01 X-61.2126 Y59.2686 
G01 X-61.2910 Y59.1146 
G01 X-61.3926 Y58.9748 
G01 X-61.5148 Y58.8526 
G01 X-61.6546 Y58.7510 
G01 X-61.7386 Y58.7083 
G01 X-61.7386 Y55.3216 
G01 X-55.5782 Y49.1612 
G01 X-55.4868 Y49.0697 
G01 X-55.4221 Y48.9577 
G01 X-55.3886 Y48.8327 
G01 X-55.3886 Y46.7838 
G01 X-55.2663 Y46.7215 
G01 X-55.1172 Y46.6131 
G01 X-54.9869 Y46.4828 
G01 X-54.8785 Y46.3337 
G01 X-54.7948 Y46.1695 
G01 X-54.7379 Y45.9942 
G01 X-54.7091 Y45.8122 
G01 X-54.7091 Y45.6278 
G01 X-54.7379 Y45.4458 
G01 X-54.7948 Y45.2705 
G01 X-54.8785 Y45.1063 
G01 X-54.9869 Y44.9572 
G01 X-55.1172 Y44.8269 
G01 X-55.2663 Y44.7185 
G01 X-55.4305 Y44.6348 
G01 X-55.6058 Y44.5779 
G01 X-55.7878 Y44.5491 
G01 X-55.9722 Y44.5491 
G01 X-56.1542 Y44.5779 
G01 X-56.3295 Y44.6348 
G01 X-56.4937 Y44.7185 
G01 X-56.6428 Y44.8269 
G01 X-56.7731 Y44.9572 
G01 X-56.8815 Y45.1063 
G01 X-56.9652 Y45.2705 
G01 X-57.0221 Y45.4458 
G01 X-57.0509 Y45.6278 
G00 Z2.5400  
G00 X-57.0509 Y60.8678 
G01 Z-0.1778 F254   
G01 X-57.0509 Y61.0522 F508   
G01 X-57.0221 Y61.2342 
G01 X-56.9652 Y61.4095 
G01 X-56.8815 Y61.5737 
G01 X-56.7731 Y61.7228 
G01 X-56.6428 Y61.8531 
G01 X-56.4937 Y61.9615 
G01 X-56.3295 Y62.0451 
G01 X-56.1542 Y62.1021 
G01 X-55.9722 Y62.1309 
G01 X-55.7878 Y62.1309 
G01 X-55.6058 Y62.1021 
G01 X-55.4305 Y62.0451 
G01 X-55.2663 Y61.9615 
G01 X-55.1172 Y61.8531 
G01 X-54.9869 Y61.7228 
G01 X-54.8785 Y61.5737 
G01 X-54.7948 Y61.4095 
G01 X-54.7379 Y61.2342 
G01 X-54.7091 Y61.0522 
G01 X-54.7091 Y60.8678 
G01 X-54.7379 Y60.6858 
G01 X-54.7948 Y60.5105 
G01 X-54.8785 Y60.3463 
G01 X-54.9869 Y60.1972 
G01 X-55.1172 Y60.0669 
G01 X-55.2276 Y59.9866 
G01 X-51.0062 Y55.7652 
G01 X-50.9148 Y55.6738 
G01 X-50.8501 Y55.5617 
G01 X-50.8166 Y55.4367 
G01 X-50.8166 Y53.5436 
G01 X-46.4342 Y49.1612 
G01 X-46.3428 Y49.0697 
G01 X-46.2781 Y48.9577 
G01 X-46.2446 Y48.8327 
G01 X-46.2446 Y45.1616 
G01 X-45.6722 Y44.5892 
G01 X-45.5808 Y44.4978 
G01 X-45.5160 Y44.3857 
G01 X-45.4826 Y44.2607 
G01 X-45.4826 Y29.3993 
G01 X-45.5160 Y29.2743 
G01 X-45.5808 Y29.1622 
G01 X-48.6653 Y26.0777 
G01 X-48.5910 Y25.9754 
G01 X-48.5126 Y25.8214 
G01 X-48.4592 Y25.6571 
G01 X-48.4322 Y25.4864 
G01 X-48.4322 Y25.3136 
G01 X-48.4592 Y25.1429 
G01 X-48.5126 Y24.9786 
G01 X-48.5910 Y24.8246 
G01 X-48.6653 Y24.7223 
G01 X-44.0568 Y20.1137 
G01 X-43.9920 Y20.0017 
G01 X-43.9586 Y19.8767 
G01 X-43.9586 Y16.2217 
G01 X-43.8746 Y16.1790 
G01 X-43.7348 Y16.0774 
G01 X-43.6126 Y15.9552 
G01 X-43.5110 Y15.8154 
G01 X-43.4326 Y15.6614 
G01 X-43.3792 Y15.4971 
G01 X-43.3522 Y15.3264 
G01 X-43.3522 Y15.1536 
G01 X-43.3792 Y14.9829 
G01 X-43.4083 Y14.8933 
G01 X-43.2304 Y14.7154 
G01 X-36.0176 Y14.7154 
G01 X-35.0328 Y15.7002 
G01 X-35.1274 Y15.7948 
G01 X-35.2290 Y15.9346 
G01 X-35.3074 Y16.0886 
G01 X-35.3608 Y16.2529 
G01 X-35.3878 Y16.4236 
G01 X-35.3878 Y16.5964 
G01 X-35.3608 Y16.7671 
G01 X-35.3074 Y16.9314 
G01 X-35.2290 Y17.0854 
G01 X-35.1274 Y17.2252 
G01 X-35.0052 Y17.3474 
G01 X-34.8654 Y17.4490 
G01 X-34.7114 Y17.5274 
G01 X-34.5471 Y17.5808 
G01 X-34.3764 Y17.6078 
G01 X-34.2036 Y17.6078 
G01 X-34.0329 Y17.5808 
G01 X-33.8686 Y17.5274 
G01 X-33.7146 Y17.4490 
G01 X-33.5748 Y17.3474 
G01 X-33.4526 Y17.2252 
G01 X-33.3510 Y17.0854 
G01 X-33.2726 Y16.9314 
G01 X-33.2192 Y16.7671 
G01 X-33.1922 Y16.5964 
G01 X-33.1922 Y16.4236 
G01 X-33.2192 Y16.2529 
G01 X-33.2726 Y16.0886 
G01 X-33.3510 Y15.9346 
G01 X-33.4526 Y15.7948 
G01 X-33.5748 Y15.6726 
G01 X-33.7146 Y15.5710 
G01 X-33.8686 Y15.4926 
G01 X-33.8968 Y15.4462 
G01 X-35.4207 Y13.9222 
G01 X-35.5122 Y13.8308 
G01 X-35.6243 Y13.7660 
G01 X-35.7493 Y13.7326 
G01 X-43.4987 Y13.7326 
G01 X-43.6237 Y13.7660 
G01 X-43.7358 Y13.8308 
G01 X-44.1033 Y14.1983 
G01 X-44.1929 Y14.1692 
G01 X-44.3636 Y14.1422 
G01 X-44.5364 Y14.1422 
G01 X-44.7071 Y14.1692 
G01 X-44.8714 Y14.2226 
G01 X-45.0254 Y14.3010 
G01 X-45.1652 Y14.4026 
G01 X-45.2874 Y14.5248 
G01 X-45.3890 Y14.6646 
G01 X-45.4674 Y14.8186 
G01 X-45.5208 Y14.9829 
G01 X-45.5478 Y15.1536 
G01 X-45.5478 Y15.3264 
G01 X-45.5208 Y15.4971 
G01 X-45.4674 Y15.6614 
G01 X-45.3890 Y15.8154 
G01 X-45.2874 Y15.9552 
G01 X-45.1652 Y16.0774 
G01 X-45.0254 Y16.1790 
G01 X-44.9414 Y16.2217 
G01 X-44.9414 Y19.6084 
G01 X-49.6387 Y24.3057 
G01 X-49.7871 Y24.3292 
G01 X-49.9514 Y24.3826 
G01 X-50.1054 Y24.4610 
G01 X-50.2452 Y24.5626 
G01 X-50.3674 Y24.6848 
G01 X-50.4690 Y24.8246 
G01 X-50.5474 Y24.9786 
G01 X-50.6008 Y25.1429 
G01 X-50.6278 Y25.3136 
G01 X-50.6278 Y25.4864 
G01 X-50.6008 Y25.6571 
G01 X-50.5474 Y25.8214 
G01 X-50.4690 Y25.9754 
G01 X-50.3674 Y26.1152 
G01 X-50.2452 Y26.2374 
G01 X-50.1054 Y26.3390 
G01 X-49.9514 Y26.4174 
G01 X-49.7871 Y26.4708 
G01 X-49.6387 Y26.4943 
G01 X-46.4654 Y29.6676 
G01 X-46.4654 Y43.9924 
G01 X-47.1292 Y44.6562 
G01 X-47.1939 Y44.7683 
G01 X-47.2274 Y44.8933 
G01 X-47.2274 Y48.5644 
G01 X-51.7012 Y53.0382 
G01 X-51.7659 Y53.1503 
G01 X-51.7994 Y53.2753 
G01 X-51.7994 Y55.1684 
G01 X-56.2732 Y59.6422 
G01 X-56.3379 Y59.7543 
G01 X-56.3714 Y59.8793 
G01 X-56.3714 Y59.8962 
G01 X-56.4937 Y59.9585 
G01 X-56.6428 Y60.0669 
G01 X-56.7731 Y60.1972 
G01 X-56.8815 Y60.3463 
G01 X-56.9652 Y60.5105 
G01 X-57.0221 Y60.6858 
G01 X-57.0509 Y60.8678 
G00 Z2.5400  
G00 X-90.2614 Y20.2128 
G01 Z-0.1778 F254   
G01 X-90.2614 Y20.4271 F508   
G01 X-90.2279 Y20.6388 
G01 X-90.1617 Y20.8426 
G01 X-90.0644 Y21.0336 
G01 X-89.9384 Y21.2069 
G01 X-89.7869 Y21.3584 
G01 X-89.6136 Y21.4844 
G01 X-89.4226 Y21.5817 
G01 X-89.2188 Y21.6479 
G01 X-89.0071 Y21.6814 
G01 X-88.7929 Y21.6814 
G01 X-88.5812 Y21.6479 
G01 X-88.3774 Y21.5817 
G01 X-88.3482 Y21.5668 
G01 X-85.5814 Y24.3336 
G01 X-85.5814 Y38.9124 
G01 X-86.8176 Y40.1486 
G01 X-86.9327 Y40.1486 
G01 X-87.0577 Y40.1821 
G01 X-87.1698 Y40.2467 
G01 X-87.2612 Y40.3382 
G01 X-87.2739 Y40.3510 
G01 X-87.3261 Y40.3340 
G01 X-87.5278 Y40.3021 
G01 X-87.7322 Y40.3021 
G01 X-87.9339 Y40.3340 
G01 X-88.1282 Y40.3972 
G01 X-88.3103 Y40.4899 
G01 X-88.4755 Y40.6100 
G01 X-88.6200 Y40.7544 
G01 X-88.7401 Y40.9197 
G01 X-88.8328 Y41.1018 
G01 X-88.8960 Y41.2961 
G01 X-88.9279 Y41.4978 
G01 X-88.9279 Y41.7022 
G01 X-88.8960 Y41.9039 
G01 X-88.8328 Y42.0982 
G01 X-88.7401 Y42.2803 
G01 X-88.6200 Y42.4456 
G01 X-88.4755 Y42.5900 
G01 X-88.3103 Y42.7101 
G01 X-88.1282 Y42.8028 
G01 X-87.9339 Y42.8660 
G01 X-87.7322 Y42.8979 
G01 X-87.5278 Y42.8979 
G01 X-87.3261 Y42.8660 
G01 X-87.1318 Y42.8028 
G01 X-86.9497 Y42.7101 
G01 X-86.7844 Y42.5900 
G01 X-86.6400 Y42.4456 
G01 X-86.5199 Y42.2803 
G01 X-86.4271 Y42.0982 
G01 X-86.3640 Y41.9039 
G01 X-86.3321 Y41.7022 
G01 X-86.3321 Y41.4978 
G01 X-86.3640 Y41.2961 
G01 X-86.4271 Y41.1018 
G01 X-86.4285 Y41.0991 
G01 X-86.4243 Y41.0979 
G01 X-86.3122 Y41.0332 
G01 X-84.6968 Y39.4178 
G01 X-84.6321 Y39.3057 
G01 X-84.5986 Y39.1807 
G01 X-84.5986 Y30.7174 
G01 X-76.3893 Y30.7174 
G01 X-76.2643 Y30.6839 
G01 X-76.1522 Y30.6192 
G01 X-71.5802 Y26.0472 
G01 X-71.4888 Y25.9558 
G01 X-71.4241 Y25.8437 
G01 X-71.3906 Y25.7187 
G01 X-71.3906 Y19.2536 
G01 X-63.0424 Y10.9054 
G01 X-54.5596 Y10.9054 
G01 X-50.5717 Y14.8933 
G01 X-50.6008 Y14.9829 
G01 X-50.6278 Y15.1536 
G01 X-50.6278 Y15.3264 
G01 X-50.6008 Y15.4971 
G01 X-50.5474 Y15.6614 
G01 X-50.4690 Y15.8154 
G01 X-50.3674 Y15.9552 
G01 X-50.2452 Y16.0774 
G01 X-50.1054 Y16.1790 
G01 X-50.0214 Y16.2217 
G01 X-50.0214 Y16.8144 
G01 X-54.1497 Y20.9428 
G01 X-54.2412 Y21.0342 
G01 X-67.6117 Y34.4047 
G01 X-67.7032 Y34.4962 
G01 X-69.8977 Y36.6908 
G01 X-69.9892 Y36.7822 
G01 X-70.0539 Y36.8943 
G01 X-70.0874 Y37.0193 
G01 X-70.0874 Y43.4987 
G01 X-70.0539 Y43.6237 
G01 X-69.9892 Y43.7358 
G01 X-69.6217 Y44.1033 
G01 X-69.6508 Y44.1929 
G01 X-69.6778 Y44.3636 
G01 X-69.6778 Y44.5364 
G01 X-69.6508 Y44.7071 
G01 X-69.5974 Y44.8714 
G01 X-69.5190 Y45.0254 
G01 X-69.4174 Y45.1652 
G01 X-69.2952 Y45.2874 
G01 X-69.1554 Y45.3890 
G01 X-69.0014 Y45.4674 
G01 X-68.8371 Y45.5208 
G01 X-68.6664 Y45.5478 
G01 X-68.4936 Y45.5478 
G01 X-68.3229 Y45.5208 
G01 X-68.1586 Y45.4674 
G01 X-68.0046 Y45.3890 
G01 X-67.8648 Y45.2874 
G01 X-67.7426 Y45.1652 
G01 X-67.6410 Y45.0254 
G01 X-67.5626 Y44.8714 
G01 X-67.5092 Y44.7071 
G01 X-67.4822 Y44.5364 
G01 X-67.4822 Y44.3636 
G01 X-67.5092 Y44.1929 
G01 X-67.5626 Y44.0286 
G01 X-67.6410 Y43.8746 
G01 X-67.7426 Y43.7348 
G01 X-67.8648 Y43.6126 
G01 X-68.0046 Y43.5110 
G01 X-68.1586 Y43.4326 
G01 X-68.3229 Y43.3792 
G01 X-68.4936 Y43.3522 
G01 X-68.6664 Y43.3522 
G01 X-68.8371 Y43.3792 
G01 X-68.9267 Y43.4083 
G01 X-69.1046 Y43.2304 
G01 X-69.1046 Y37.2876 
G01 X-67.3100 Y35.4930 
G01 X-60.4354 Y42.3676 
G01 X-60.4354 Y50.3424 
G01 X-65.4816 Y55.3886 
G01 X-71.4083 Y55.3886 
G01 X-71.4510 Y55.3046 
G01 X-71.5526 Y55.1648 
G01 X-71.6748 Y55.0426 
G01 X-71.8146 Y54.9410 
G01 X-71.9686 Y54.8626 
G01 X-72.1329 Y54.8092 
G01 X-72.3036 Y54.7822 
G01 X-72.4764 Y54.7822 
G01 X-72.6471 Y54.8092 
G01 X-72.8114 Y54.8626 
G01 X-72.9654 Y54.9410 
G01 X-73.1052 Y55.0426 
G01 X-73.2274 Y55.1648 
G01 X-73.3290 Y55.3046 
G01 X-73.4074 Y55.4586 
G01 X-73.4608 Y55.6229 
G01 X-73.4878 Y55.7936 
G01 X-73.4878 Y55.9664 
G01 X-73.4608 Y56.1371 
G01 X-73.4074 Y56.3014 
G01 X-73.3290 Y56.4554 
G01 X-73.2274 Y56.5952 
G01 X-73.1052 Y56.7174 
G01 X-72.9654 Y56.8190 
G01 X-72.8114 Y56.8974 
G01 X-72.6471 Y56.9508 
G01 X-72.4764 Y56.9778 
G01 X-72.3036 Y56.9778 
G01 X-72.1329 Y56.9508 
G01 X-71.9686 Y56.8974 
G01 X-71.8146 Y56.8190 
G01 X-71.6748 Y56.7174 
G01 X-71.5526 Y56.5952 
G01 X-71.4510 Y56.4554 
G01 X-71.4083 Y56.3714 
G01 X-65.2133 Y56.3714 
G01 X-65.0883 Y56.3379 
G01 X-64.9762 Y56.2732 
G01 X-59.6422 Y50.9392 
G01 X-59.5508 Y50.8478 
G01 X-59.4861 Y50.7357 
G01 X-59.4526 Y50.6107 
G01 X-59.4526 Y42.0993 
G01 X-59.4861 Y41.9743 
G01 X-59.5508 Y41.8622 
G01 X-66.6150 Y34.7980 
G01 X-54.0854 Y22.2684 
G01 X-54.0854 Y41.2127 
G01 X-54.0519 Y41.3377 
G01 X-53.9872 Y41.4498 
G01 X-53.8957 Y41.5412 
G01 X-50.0214 Y45.4156 
G01 X-50.0214 Y47.2783 
G01 X-50.1054 Y47.3210 
G01 X-50.2452 Y47.4226 
G01 X-50.3674 Y47.5448 
G01 X-50.4690 Y47.6846 
G01 X-50.5474 Y47.8386 
G01 X-50.6008 Y48.0029 
G01 X-50.6278 Y48.1736 
G01 X-50.6278 Y48.3464 
G01 X-50.6008 Y48.5171 
G01 X-50.5474 Y48.6814 
G01 X-50.4690 Y48.8354 
G01 X-50.3674 Y48.9752 
G01 X-50.2452 Y49.0974 
G01 X-50.1054 Y49.1990 
G01 X-49.9514 Y49.2774 
G01 X-49.7871 Y49.3308 
G01 X-49.6164 Y49.3578 
G01 X-49.4436 Y49.3578 
G01 X-49.2729 Y49.3308 
G01 X-49.1086 Y49.2774 
G01 X-48.9546 Y49.1990 
G01 X-48.8148 Y49.0974 
G01 X-48.6926 Y48.9752 
G01 X-48.5910 Y48.8354 
G01 X-48.5126 Y48.6814 
G01 X-48.4592 Y48.5171 
G01 X-48.4322 Y48.3464 
G01 X-48.4322 Y48.1736 
G01 X-48.4592 Y48.0029 
G01 X-48.5126 Y47.8386 
G01 X-48.5910 Y47.6846 
G01 X-48.6926 Y47.5448 
G01 X-48.8148 Y47.4226 
G01 X-48.9546 Y47.3210 
G01 X-49.0386 Y47.2783 
G01 X-49.0386 Y45.1473 
G01 X-49.0721 Y45.0223 
G01 X-49.1367 Y44.9102 
G01 X-53.1026 Y40.9444 
G01 X-53.1026 Y21.5253 
G01 X-53.1361 Y21.4003 
G01 X-53.1658 Y21.3488 
G01 X-49.1367 Y17.3197 
G01 X-49.0721 Y17.2077 
G01 X-49.0386 Y17.0827 
G01 X-49.0386 Y16.2217 
G01 X-48.9546 Y16.1790 
G01 X-48.8148 Y16.0774 
G01 X-48.6926 Y15.9552 
G01 X-48.5910 Y15.8154 
G01 X-48.5126 Y15.6614 
G01 X-48.4592 Y15.4971 
G01 X-48.4322 Y15.3264 
G01 X-48.4322 Y15.1536 
G01 X-48.4592 Y14.9829 
G01 X-48.5126 Y14.8186 
G01 X-48.5910 Y14.6646 
G01 X-48.6926 Y14.5248 
G01 X-48.8148 Y14.4026 
G01 X-48.9546 Y14.3010 
G01 X-49.1086 Y14.2226 
G01 X-49.2729 Y14.1692 
G01 X-49.4436 Y14.1422 
G01 X-49.6164 Y14.1422 
G01 X-49.7871 Y14.1692 
G01 X-49.8767 Y14.1983 
G01 X-54.0542 Y10.0207 
G01 X-54.1663 Y9.9561  
G01 X-54.2913 Y9.9226  
G01 X-63.3107 Y9.9226  
G01 X-63.4357 Y9.9561  
G01 X-63.5478 Y10.0207 
G01 X-63.6392 Y10.1122 
G01 X-72.2752 Y18.7482 
G01 X-72.3399 Y18.8603 
G01 X-72.3734 Y18.9853 
G01 X-72.3734 Y25.4504 
G01 X-76.6576 Y29.7346 
G01 X-84.5986 Y29.7346 
G01 X-84.5986 Y24.0653 
G01 X-84.6321 Y23.9403 
G01 X-84.6968 Y23.8282 
G01 X-84.7882 Y23.7368 
G01 X-87.6532 Y20.8718 
G01 X-87.6383 Y20.8426 
G01 X-87.5721 Y20.6388 
G01 X-87.5386 Y20.4271 
G01 X-87.5386 Y20.2128 
G01 X-87.5721 Y20.0012 
G01 X-87.6383 Y19.7974 
G01 X-87.7356 Y19.6064 
G01 X-87.8616 Y19.4331 
G01 X-88.0131 Y19.2815 
G01 X-88.1864 Y19.1556 
G01 X-88.3774 Y19.0583 
G01 X-88.5812 Y18.9921 
G01 X-88.7929 Y18.9586 
G01 X-89.0071 Y18.9586 
G01 X-89.2188 Y18.9921 
G01 X-89.4226 Y19.0583 
G01 X-89.6136 Y19.1556 
G01 X-89.7869 Y19.2815 
G01 X-89.9384 Y19.4331 
G01 X-90.0644 Y19.6064 
G01 X-90.1617 Y19.7974 
G01 X-90.2279 Y20.0012 
G01 X-90.2614 Y20.2128 
G00 Z2.5400  
G00 X-57.0509 Y27.8478 
G01 Z-0.1778 F254   
G01 X-57.0509 Y28.0322 F508   
G01 X-57.0221 Y28.2142 
G01 X-56.9652 Y28.3895 
G01 X-56.8815 Y28.5537 
G01 X-56.7731 Y28.7028 
G01 X-56.6428 Y28.8331 
G01 X-56.4937 Y28.9415 
G01 X-56.3714 Y29.0038 
G01 X-56.3714 Y42.4827 
G01 X-56.3379 Y42.6077 
G01 X-56.2732 Y42.7198 
G01 X-54.0854 Y44.9076 
G01 X-54.0854 Y55.1684 
G01 X-58.4678 Y59.5508 
G01 X-58.5592 Y59.6422 
G01 X-58.6239 Y59.7543 
G01 X-58.6574 Y59.8793 
G01 X-58.6574 Y62.0407 
G01 X-58.6239 Y62.1657 
G01 X-58.5592 Y62.2778 
G01 X-57.2892 Y63.5478 
G01 X-57.1977 Y63.6392 
G01 X-57.0857 Y63.7039 
G01 X-56.9607 Y63.7374 
G01 X-54.2913 Y63.7374 
G01 X-54.1663 Y63.7039 
G01 X-54.0542 Y63.6392 
G01 X-49.8767 Y59.4617 
G01 X-49.7871 Y59.4908 
G01 X-49.6164 Y59.5178 
G01 X-49.4436 Y59.5178 
G01 X-49.2729 Y59.4908 
G01 X-49.1086 Y59.4374 
G01 X-48.9546 Y59.3590 
G01 X-48.8148 Y59.2574 
G01 X-48.6926 Y59.1352 
G01 X-48.5910 Y58.9954 
G01 X-48.5126 Y58.8414 
G01 X-48.4592 Y58.6771 
G01 X-48.4322 Y58.5064 
G01 X-48.4322 Y58.3336 
G01 X-48.4592 Y58.1629 
G01 X-48.5126 Y57.9986 
G01 X-48.5910 Y57.8446 
G01 X-48.6926 Y57.7048 
G01 X-48.8148 Y57.5826 
G01 X-48.9546 Y57.4810 
G01 X-49.0386 Y57.4383 
G01 X-49.0386 Y54.0516 
G01 X-44.3413 Y49.3543 
G01 X-44.1929 Y49.3308 
G01 X-44.0286 Y49.2774 
G01 X-43.8746 Y49.1990 
G01 X-43.7348 Y49.0974 
G01 X-43.6126 Y48.9752 
G01 X-43.5110 Y48.8354 
G01 X-43.4326 Y48.6814 
G01 X-43.3792 Y48.5171 
G01 X-43.3522 Y48.3464 
G01 X-43.3522 Y48.1736 
G01 X-43.3792 Y48.0029 
G01 X-43.4326 Y47.8386 
G01 X-43.5110 Y47.6846 
G01 X-43.6126 Y47.5448 
G01 X-43.7348 Y47.4226 
G01 X-43.8746 Y47.3210 
G01 X-43.9586 Y47.2783 
G01 X-43.9586 Y46.4316 
G01 X-38.9124 Y41.3854 
G01 X-37.2876 Y41.3854 
G01 X-36.3054 Y42.3676 
G01 X-36.3054 Y44.7544 
G01 X-39.7632 Y48.2122 
G01 X-39.8279 Y48.3243 
G01 X-39.8614 Y48.4493 
G01 X-39.8614 Y48.5483 
G01 X-39.9454 Y48.5910 
G01 X-40.0852 Y48.6926 
G01 X-40.2074 Y48.8148 
G01 X-40.3090 Y48.9546 
G01 X-40.3874 Y49.1086 
G01 X-40.4408 Y49.2729 
G01 X-40.4678 Y49.4436 
G01 X-40.4678 Y49.6164 
G01 X-40.4408 Y49.7871 
G01 X-40.3874 Y49.9514 
G01 X-40.3090 Y50.1054 
G01 X-40.2074 Y50.2452 
G01 X-40.0852 Y50.3674 
G01 X-39.9454 Y50.4690 
G01 X-39.7914 Y50.5474 
G01 X-39.6271 Y50.6008 
G01 X-39.4564 Y50.6278 
G01 X-39.2836 Y50.6278 
G01 X-39.1129 Y50.6008 
G01 X-38.9486 Y50.5474 
G01 X-38.7946 Y50.4690 
G01 X-38.6548 Y50.3674 
G01 X-38.5326 Y50.2452 
G01 X-38.4310 Y50.1054 
G01 X-38.3526 Y49.9514 
G01 X-38.2992 Y49.7871 
G01 X-38.2722 Y49.6164 
G01 X-38.2722 Y49.4436 
G01 X-38.2992 Y49.2729 
G01 X-38.3526 Y49.1086 
G01 X-38.4310 Y48.9546 
G01 X-38.5326 Y48.8148 
G01 X-38.6548 Y48.6926 
G01 X-38.7700 Y48.6090 
G01 X-35.5122 Y45.3512 
G01 X-35.4207 Y45.2598 
G01 X-35.3561 Y45.1477 
G01 X-35.3226 Y45.0227 
G01 X-35.3226 Y42.0993 
G01 X-35.3561 Y41.9743 
G01 X-35.4207 Y41.8622 
G01 X-36.6908 Y40.5922 
G01 X-36.7822 Y40.5008 
G01 X-36.8943 Y40.4361 
G01 X-37.0193 Y40.4026 
G01 X-39.1807 Y40.4026 
G01 X-39.3057 Y40.4361 
G01 X-39.4178 Y40.5008 
G01 X-44.7518 Y45.8347 
G01 X-44.8432 Y45.9262 
G01 X-44.9079 Y46.0383 
G01 X-44.9414 Y46.1633 
G01 X-44.9414 Y47.2783 
G01 X-45.0254 Y47.3210 
G01 X-45.1652 Y47.4226 
G01 X-45.2874 Y47.5448 
G01 X-45.3890 Y47.6846 
G01 X-45.4674 Y47.8386 
G01 X-45.5208 Y48.0029 
G01 X-45.5478 Y48.1736 
G01 X-45.5478 Y48.3464 
G01 X-45.5208 Y48.5171 
G01 X-45.4674 Y48.6814 
G01 X-45.3890 Y48.8354 
G01 X-45.3147 Y48.9377 
G01 X-49.9232 Y53.5462 
G01 X-49.9879 Y53.6583 
G01 X-50.0214 Y53.7833 
G01 X-50.0214 Y57.4383 
G01 X-50.1054 Y57.4810 
G01 X-50.2452 Y57.5826 
G01 X-50.3674 Y57.7048 
G01 X-50.4690 Y57.8446 
G01 X-50.5474 Y57.9986 
G01 X-50.6008 Y58.1629 
G01 X-50.6278 Y58.3336 
G01 X-50.6278 Y58.5064 
G01 X-50.6008 Y58.6771 
G01 X-50.5717 Y58.7667 
G01 X-54.5596 Y62.7546 
G01 X-56.6924 Y62.7546 
G01 X-57.6746 Y61.7724 
G01 X-57.6746 Y60.1476 
G01 X-53.2007 Y55.6738 
G01 X-53.1361 Y55.5617 
G01 X-53.1026 Y55.4367 
G01 X-53.1026 Y44.6393 
G01 X-53.1361 Y44.5143 
G01 X-53.2007 Y44.4022 
G01 X-53.2922 Y44.3107 
G01 X-55.3886 Y42.2144 
G01 X-55.3886 Y29.0038 
G01 X-55.2663 Y28.9415 
G01 X-55.1172 Y28.8331 
G01 X-54.9869 Y28.7028 
G01 X-54.8785 Y28.5537 
G01 X-54.7948 Y28.3895 
G01 X-54.7379 Y28.2142 
G01 X-54.7091 Y28.0322 
G01 X-54.7091 Y27.8478 
G01 X-54.7379 Y27.6658 
G01 X-54.7948 Y27.4905 
G01 X-54.8785 Y27.3263 
G01 X-54.9869 Y27.1772 
G01 X-55.1172 Y27.0469 
G01 X-55.2663 Y26.9385 
G01 X-55.4305 Y26.8548 
G01 X-55.6058 Y26.7979 
G01 X-55.7878 Y26.7691 
G01 X-55.9722 Y26.7691 
G01 X-56.1542 Y26.7979 
G01 X-56.3295 Y26.8548 
G01 X-56.4937 Y26.9385 
G01 X-56.6428 Y27.0469 
G01 X-56.7731 Y27.1772 
G01 X-56.8815 Y27.3263 
G01 X-56.9652 Y27.4905 
G01 X-57.0221 Y27.6658 
G01 X-57.0509 Y27.8478 
G00 Z2.5400  
G00 X-37.9278 Y58.3336 
G01 Z-0.1778 F254   
G01 X-37.9278 Y58.5064 F508   
G01 X-37.9008 Y58.6771 
G01 X-37.8474 Y58.8414 
G01 X-37.7690 Y58.9954 
G01 X-37.6674 Y59.1352 
G01 X-37.5452 Y59.2574 
G01 X-37.4054 Y59.3590 
G01 X-37.2514 Y59.4374 
G01 X-37.0871 Y59.4908 
G01 X-36.9164 Y59.5178 
G01 X-36.7436 Y59.5178 
G01 X-36.5729 Y59.4908 
G01 X-36.4086 Y59.4374 
G01 X-36.2546 Y59.3590 
G01 X-36.1148 Y59.2574 
G01 X-35.9926 Y59.1352 
G01 X-35.8910 Y58.9954 
G01 X-35.8126 Y58.8414 
G01 X-35.7592 Y58.6771 
G01 X-35.7322 Y58.5064 
G01 X-35.7322 Y58.3336 
G01 X-35.7592 Y58.1629 
G01 X-35.8126 Y57.9986 
G01 X-35.8910 Y57.8446 
G01 X-35.9926 Y57.7048 
G01 X-36.1148 Y57.5826 
G01 X-36.2546 Y57.4810 
G01 X-36.3386 Y57.4383 
G01 X-36.3386 Y50.5117 
G01 X-36.2546 Y50.4690 
G01 X-36.1148 Y50.3674 
G01 X-35.9926 Y50.2452 
G01 X-35.8910 Y50.1054 
G01 X-35.8126 Y49.9514 
G01 X-35.7592 Y49.7871 
G01 X-35.7322 Y49.6164 
G01 X-35.7322 Y49.4436 
G01 X-35.7592 Y49.2729 
G01 X-35.8126 Y49.1086 
G01 X-35.8910 Y48.9546 
G01 X-35.9926 Y48.8148 
G01 X-36.1148 Y48.6926 
G01 X-36.2546 Y48.5910 
G01 X-36.4086 Y48.5126 
G01 X-36.5729 Y48.4592 
G01 X-36.7436 Y48.4322 
G01 X-36.9164 Y48.4322 
G01 X-37.0871 Y48.4592 
G01 X-37.2514 Y48.5126 
G01 X-37.4054 Y48.5910 
G01 X-37.5452 Y48.6926 
G01 X-37.6674 Y48.8148 
G01 X-37.7690 Y48.9546 
G01 X-37.8474 Y49.1086 
G01 X-37.9008 Y49.2729 
G01 X-37.9278 Y49.4436 
G01 X-37.9278 Y49.6164 
G01 X-37.9008 Y49.7871 
G01 X-37.8474 Y49.9514 
G01 X-37.7690 Y50.1054 
G01 X-37.6674 Y50.2452 
G01 X-37.5452 Y50.3674 
G01 X-37.4054 Y50.4690 
G01 X-37.3214 Y50.5117 
G01 X-37.3214 Y50.6236 
G01 X-37.3858 Y50.6608 
G01 X-37.4772 Y50.7522 
G01 X-44.1033 Y57.3783 
G01 X-44.1929 Y57.3492 
G01 X-44.3636 Y57.3222 
G01 X-44.5364 Y57.3222 
G01 X-44.7071 Y57.3492 
G01 X-44.8714 Y57.4026 
G01 X-45.0254 Y57.4810 
G01 X-45.1652 Y57.5826 
G01 X-45.2874 Y57.7048 
G01 X-45.3890 Y57.8446 
G01 X-45.4674 Y57.9986 
G01 X-45.5208 Y58.1629 
G01 X-45.5478 Y58.3336 
G01 X-45.5478 Y58.5064 
G01 X-45.5208 Y58.6771 
G01 X-45.4674 Y58.8414 
G01 X-45.3890 Y58.9954 
G01 X-45.2874 Y59.1352 
G01 X-45.1652 Y59.2574 
G01 X-45.0254 Y59.3590 
G01 X-44.8714 Y59.4374 
G01 X-44.7071 Y59.4908 
G01 X-44.5364 Y59.5178 
G01 X-44.3636 Y59.5178 
G01 X-44.1929 Y59.4908 
G01 X-44.0286 Y59.4374 
G01 X-43.8746 Y59.3590 
G01 X-43.7348 Y59.2574 
G01 X-43.6126 Y59.1352 
G01 X-43.5110 Y58.9954 
G01 X-43.4326 Y58.8414 
G01 X-43.3792 Y58.6771 
G01 X-43.3522 Y58.5064 
G01 X-43.3522 Y58.3336 
G01 X-43.3792 Y58.1629 
G01 X-43.4083 Y58.0733 
G01 X-37.3214 Y51.9864 
G01 X-37.3214 Y57.4383 
G01 X-37.4054 Y57.4810 
G01 X-37.5452 Y57.5826 
G01 X-37.6674 Y57.7048 
G01 X-37.7690 Y57.8446 
G01 X-37.8474 Y57.9986 
G01 X-37.9008 Y58.1629 
G01 X-37.9278 Y58.3336 
G00 Z2.5400  
G00 X-37.9278 Y25.3136 
G01 Z-0.1778 F254   
G01 X-37.9278 Y25.4864 F508   
G01 X-37.9008 Y25.6571 
G01 X-37.8474 Y25.8214 
G01 X-37.7690 Y25.9754 
G01 X-37.6674 Y26.1152 
G01 X-37.5452 Y26.2374 
G01 X-37.4054 Y26.3390 
G01 X-37.2514 Y26.4174 
G01 X-37.0871 Y26.4708 
G01 X-36.9164 Y26.4978 
G01 X-36.7436 Y26.4978 
G01 X-36.5729 Y26.4708 
G01 X-36.4086 Y26.4174 
G01 X-36.2546 Y26.3390 
G01 X-36.1148 Y26.2374 
G01 X-35.9926 Y26.1152 
G01 X-35.8910 Y25.9754 
G01 X-35.8126 Y25.8214 
G01 X-35.7592 Y25.6571 
G01 X-35.7322 Y25.4864 
G01 X-35.7322 Y25.3136 
G01 X-35.7592 Y25.1429 
G01 X-35.8126 Y24.9786 
G01 X-35.8910 Y24.8246 
G01 X-35.9926 Y24.6848 
G01 X-36.1148 Y24.5626 
G01 X-36.2546 Y24.4610 
G01 X-36.3386 Y24.4183 
G01 X-36.3386 Y17.4917 
G01 X-36.2546 Y17.4490 
G01 X-36.1148 Y17.3474 
G01 X-35.9926 Y17.2252 
G01 X-35.8910 Y17.0854 
G01 X-35.8126 Y16.9314 
G01 X-35.7592 Y16.7671 
G01 X-35.7322 Y16.5964 
G01 X-35.7322 Y16.4236 
G01 X-35.7592 Y16.2529 
G01 X-35.8126 Y16.0886 
G01 X-35.8910 Y15.9346 
G01 X-35.9926 Y15.7948 
G01 X-36.1148 Y15.6726 
G01 X-36.2546 Y15.5710 
G01 X-36.4086 Y15.4926 
G01 X-36.5729 Y15.4392 
G01 X-36.7436 Y15.4122 
G01 X-36.9164 Y15.4122 
G01 X-37.0871 Y15.4392 
G01 X-37.2514 Y15.4926 
G01 X-37.4054 Y15.5710 
G01 X-37.5452 Y15.6726 
G01 X-37.6674 Y15.7948 
G01 X-37.7690 Y15.9346 
G01 X-37.8474 Y16.0886 
G01 X-37.9008 Y16.2529 
G01 X-37.9278 Y16.4236 
G01 X-37.9278 Y16.5964 
G01 X-37.9008 Y16.7671 
G01 X-37.8474 Y16.9314 
G01 X-37.7690 Y17.0854 
G01 X-37.6674 Y17.2252 
G01 X-37.5452 Y17.3474 
G01 X-37.4054 Y17.4490 
G01 X-37.3214 Y17.4917 
G01 X-37.3214 Y17.6036 
G01 X-37.3858 Y17.6408 
G01 X-37.4772 Y17.7322 
G01 X-44.1033 Y24.3583 
G01 X-44.1929 Y24.3292 
G01 X-44.3636 Y24.3022 
G01 X-44.5364 Y24.3022 
G01 X-44.7071 Y24.3292 
G01 X-44.8714 Y24.3826 
G01 X-45.0254 Y24.4610 
G01 X-45.1652 Y24.5626 
G01 X-45.2874 Y24.6848 
G01 X-45.3890 Y24.8246 
G01 X-45.4674 Y24.9786 
G01 X-45.5208 Y25.1429 
G01 X-45.5478 Y25.3136 
G01 X-45.5478 Y25.4864 
G01 X-45.5208 Y25.6571 
G01 X-45.4674 Y25.8214 
G01 X-45.3890 Y25.9754 
G01 X-45.2874 Y26.1152 
G01 X-45.1652 Y26.2374 
G01 X-45.0254 Y26.3390 
G01 X-44.8714 Y26.4174 
G01 X-44.7071 Y26.4708 
G01 X-44.5364 Y26.4978 
G01 X-44.3636 Y26.4978 
G01 X-44.1929 Y26.4708 
G01 X-44.0286 Y26.4174 
G01 X-43.8746 Y26.3390 
G01 X-43.7348 Y26.2374 
G01 X-43.6126 Y26.1152 
G01 X-43.5110 Y25.9754 
G01 X-43.4326 Y25.8214 
G01 X-43.3792 Y25.6571 
G01 X-43.3522 Y25.4864 
G01 X-43.3522 Y25.3136 
G01 X-43.3792 Y25.1429 
G01 X-43.4083 Y25.0533 
G01 X-37.3214 Y18.9664 
G01 X-37.3214 Y24.4183 
G01 X-37.4054 Y24.4610 
G01 X-37.5452 Y24.5626 
G01 X-37.6674 Y24.6848 
G01 X-37.7690 Y24.8246 
G01 X-37.8474 Y24.9786 
G01 X-37.9008 Y25.1429 
G01 X-37.9278 Y25.3136 
G00 Z2.5400  
G00 X-25.1179 Y16.4078 
G01 Z-0.1778 F254   
G01 X-25.1179 Y16.6121 F508   
G01 X-25.0860 Y16.8139 
G01 X-25.0228 Y17.0082 
G01 X-24.9301 Y17.1903 
G01 X-24.8100 Y17.3556 
G01 X-24.6655 Y17.5000 
G01 X-24.5003 Y17.6201 
G01 X-24.3182 Y17.7128 
G01 X-24.1239 Y17.7760 
G01 X-23.9222 Y17.8079 
G01 X-23.7178 Y17.8079 
G01 X-23.5161 Y17.7760 
G01 X-23.3218 Y17.7128 
G01 X-23.3191 Y17.7115 
G01 X-23.3179 Y17.7157 
G01 X-23.2532 Y17.8278 
G01 X-18.9352 Y22.1457 
G01 X-18.8438 Y22.2372 
G01 X-18.7317 Y22.3019 
G01 X-18.6067 Y22.3354 
G01 X-16.9676 Y22.3354 
G01 X-13.9534 Y25.3496 
G01 X-13.9534 Y57.2004 
G01 X-18.9996 Y62.2466 
G01 X-35.8644 Y62.2466 
G01 X-38.7700 Y59.3410 
G01 X-38.6548 Y59.2574 
G01 X-38.5326 Y59.1352 
G01 X-38.4310 Y58.9954 
G01 X-38.3526 Y58.8414 
G01 X-38.2992 Y58.6771 
G01 X-38.2722 Y58.5064 
G01 X-38.2722 Y58.3336 
G01 X-38.2992 Y58.1629 
G01 X-38.3526 Y57.9986 
G01 X-38.4310 Y57.8446 
G01 X-38.5326 Y57.7048 
G01 X-38.6548 Y57.5826 
G01 X-38.7946 Y57.4810 
G01 X-38.9486 Y57.4026 
G01 X-39.1129 Y57.3492 
G01 X-39.2836 Y57.3222 
G01 X-39.4564 Y57.3222 
G01 X-39.6271 Y57.3492 
G01 X-39.7914 Y57.4026 
G01 X-39.9454 Y57.4810 
G01 X-40.0852 Y57.5826 
G01 X-40.2074 Y57.7048 
G01 X-40.3090 Y57.8446 
G01 X-40.3874 Y57.9986 
G01 X-40.4408 Y58.1629 
G01 X-40.4678 Y58.3336 
G01 X-40.4678 Y58.5064 
G01 X-40.4408 Y58.6771 
G01 X-40.4117 Y58.7667 
G01 X-41.8596 Y60.2146 
G01 X-45.2624 Y60.2146 
G01 X-46.2446 Y59.2324 
G01 X-46.2446 Y57.6076 
G01 X-41.7707 Y53.1337 
G01 X-41.7061 Y53.0217 
G01 X-41.6726 Y52.8967 
G01 X-41.6726 Y49.2256 
G01 X-37.7983 Y45.3513 
G01 X-37.7067 Y45.2598 
G01 X-37.6421 Y45.1477 
G01 X-37.6086 Y45.0227 
G01 X-37.6086 Y44.1617 
G01 X-37.5246 Y44.1190 
G01 X-37.3848 Y44.0174 
G01 X-37.2626 Y43.8952 
G01 X-37.1610 Y43.7554 
G01 X-37.0826 Y43.6014 
G01 X-37.0292 Y43.4371 
G01 X-37.0022 Y43.2664 
G01 X-37.0022 Y43.0936 
G01 X-37.0292 Y42.9229 
G01 X-37.0826 Y42.7586 
G01 X-37.1610 Y42.6046 
G01 X-37.2626 Y42.4648 
G01 X-37.3848 Y42.3426 
G01 X-37.5246 Y42.2410 
G01 X-37.6786 Y42.1626 
G01 X-37.8429 Y42.1092 
G01 X-38.0136 Y42.0822 
G01 X-38.1864 Y42.0822 
G01 X-38.3571 Y42.1092 
G01 X-38.5214 Y42.1626 
G01 X-38.6754 Y42.2410 
G01 X-38.8152 Y42.3426 
G01 X-38.9374 Y42.4648 
G01 X-39.0390 Y42.6046 
G01 X-39.1174 Y42.7586 
G01 X-39.1708 Y42.9229 
G01 X-39.1978 Y43.0936 
G01 X-39.1978 Y43.2664 
G01 X-39.1708 Y43.4371 
G01 X-39.1174 Y43.6014 
G01 X-39.0390 Y43.7554 
G01 X-38.9374 Y43.8952 
G01 X-38.8152 Y44.0174 
G01 X-38.6754 Y44.1190 
G01 X-38.5914 Y44.1617 
G01 X-38.5914 Y44.7544 
G01 X-42.4657 Y48.6288 
G01 X-42.5572 Y48.7202 
G01 X-42.6219 Y48.8323 
G01 X-42.6554 Y48.9573 
G01 X-42.6554 Y52.6284 
G01 X-47.0377 Y57.0108 
G01 X-47.1292 Y57.1022 
G01 X-47.1939 Y57.2143 
G01 X-47.2274 Y57.3393 
G01 X-47.2274 Y59.5007 
G01 X-47.1939 Y59.6257 
G01 X-47.1292 Y59.7378 
G01 X-45.8592 Y61.0078 
G01 X-45.7677 Y61.0992 
G01 X-45.6557 Y61.1639 
G01 X-45.5307 Y61.1974 
G01 X-41.5913 Y61.1974 
G01 X-41.4663 Y61.1639 
G01 X-41.3542 Y61.0992 
G01 X-39.8780 Y59.6230 
G01 X-36.3698 Y63.1312 
G01 X-36.2577 Y63.1959 
G01 X-36.1327 Y63.2294 
G01 X-18.7313 Y63.2294 
G01 X-18.6063 Y63.1959 
G01 X-18.4942 Y63.1312 
G01 X-18.4028 Y63.0398 
G01 X-13.0688 Y57.7058 
G01 X-13.0041 Y57.5937 
G01 X-12.9706 Y57.4687 
G01 X-12.9706 Y25.0813 
G01 X-13.0041 Y24.9563 
G01 X-13.0688 Y24.8442 
G01 X-13.1602 Y24.7528 
G01 X-16.4622 Y21.4507 
G01 X-16.5743 Y21.3861 
G01 X-16.6993 Y21.3526 
G01 X-18.3384 Y21.3526 
G01 X-22.3686 Y17.3224 
G01 X-22.3686 Y17.2073 
G01 X-22.4021 Y17.0823 
G01 X-22.4668 Y16.9702 
G01 X-22.5582 Y16.8788 
G01 X-22.5710 Y16.8660 
G01 X-22.5540 Y16.8139 
G01 X-22.5221 Y16.6121 
G01 X-22.5221 Y16.4078 
G01 X-22.5540 Y16.2061 
G01 X-22.6172 Y16.0118 
G01 X-22.7099 Y15.8297 
G01 X-22.8300 Y15.6644 
G01 X-22.9744 Y15.5200 
G01 X-23.1397 Y15.3999 
G01 X-23.3218 Y15.3072 
G01 X-23.5161 Y15.2440 
G01 X-23.7178 Y15.2121 
G01 X-23.9222 Y15.2121 
G01 X-24.1239 Y15.2440 
G01 X-24.3182 Y15.3072 
G01 X-24.5003 Y15.3999 
G01 X-24.6655 Y15.5200 
G01 X-24.8100 Y15.6644 
G01 X-24.9301 Y15.8297 
G01 X-25.0228 Y16.0118 
G01 X-25.0860 Y16.2061 
G01 X-25.1179 Y16.4078 
G00 Z2.5400  
G00 X-88.9279 Y44.9978 
G01 Z-0.1778 F254   
G01 X-88.9279 Y45.2022 F508   
G01 X-88.8960 Y45.4039 
G01 X-88.8328 Y45.5982 
G01 X-88.7401 Y45.7803 
G01 X-88.6200 Y45.9456 
G01 X-88.4755 Y46.0900 
G01 X-88.3103 Y46.2101 
G01 X-88.1282 Y46.3028 
G01 X-87.9339 Y46.3660 
G01 X-87.7322 Y46.3979 
G01 X-87.5278 Y46.3979 
G01 X-87.3261 Y46.3660 
G01 X-87.2090 Y46.3280 
G01 X-80.8320 Y52.7050 
G01 X-82.9536 Y54.8266 
G01 X-83.1064 Y54.7156 
G01 X-83.2974 Y54.6183 
G01 X-83.5012 Y54.5521 
G01 X-83.7129 Y54.5186 
G01 X-83.9271 Y54.5186 
G01 X-84.1388 Y54.5521 
G01 X-84.3426 Y54.6183 
G01 X-84.5336 Y54.7156 
G01 X-84.7069 Y54.8416 
G01 X-84.8584 Y54.9931 
G01 X-84.9844 Y55.1664 
G01 X-85.0817 Y55.3574 
G01 X-85.1479 Y55.5612 
G01 X-85.1814 Y55.7729 
G01 X-85.1814 Y55.9871 
G01 X-85.1479 Y56.1988 
G01 X-85.0817 Y56.4026 
G01 X-84.9844 Y56.5936 
G01 X-84.8584 Y56.7669 
G01 X-84.7069 Y56.9184 
G01 X-84.5336 Y57.0444 
G01 X-84.3426 Y57.1417 
G01 X-84.1388 Y57.2079 
G01 X-83.9271 Y57.2414 
G01 X-83.7129 Y57.2414 
G01 X-83.5012 Y57.2079 
G01 X-83.2974 Y57.1417 
G01 X-83.2682 Y57.1268 
G01 X-79.0418 Y61.3532 
G01 X-78.9297 Y61.4179 
G01 X-78.8047 Y61.4514 
G01 X-73.3717 Y61.4514 
G01 X-73.3290 Y61.5354 
G01 X-73.2274 Y61.6752 
G01 X-73.1052 Y61.7974 
G01 X-72.9654 Y61.8990 
G01 X-72.8114 Y61.9774 
G01 X-72.6471 Y62.0308 
G01 X-72.4764 Y62.0578 
G01 X-72.3036 Y62.0578 
G01 X-72.1329 Y62.0308 
G01 X-72.0433 Y62.0017 
G01 X-68.6278 Y65.4172 
G01 X-68.5157 Y65.4819 
G01 X-68.3907 Y65.5154 
G01 X-18.7313 Y65.5154 
G01 X-18.6063 Y65.4819 
G01 X-18.4942 Y65.4172 
G01 X-18.4028 Y65.3257 
G01 X-7.4808 Y54.4038 
G01 X-7.4161 Y54.2917 
G01 X-7.3826 Y54.1667 
G01 X-7.3826 Y50.6039 
G01 X-7.3629 Y50.6008 
G01 X-7.1986 Y50.5474 
G01 X-7.0446 Y50.4690 
G01 X-6.9048 Y50.3674 
G01 X-6.7826 Y50.2452 
G01 X-6.6810 Y50.1054 
G01 X-6.6026 Y49.9514 
G01 X-6.5492 Y49.7871 
G01 X-6.5222 Y49.6164 
G01 X-6.5222 Y49.4436 
G01 X-6.5492 Y49.2729 
G01 X-6.6026 Y49.1086 
G01 X-6.6810 Y48.9546 
G01 X-6.7826 Y48.8148 
G01 X-6.9048 Y48.6926 
G01 X-7.0446 Y48.5910 
G01 X-7.1286 Y48.5483 
G01 X-7.1286 Y25.1117 
G01 X-7.0446 Y25.0690 
G01 X-6.9048 Y24.9674 
G01 X-6.7826 Y24.8452 
G01 X-6.6810 Y24.7054 
G01 X-6.6026 Y24.5514 
G01 X-6.5492 Y24.3871 
G01 X-6.5222 Y24.2164 
G01 X-6.5222 Y24.0436 
G01 X-6.5492 Y23.8729 
G01 X-6.6026 Y23.7086 
G01 X-6.6810 Y23.5546 
G01 X-6.7826 Y23.4148 
G01 X-6.9048 Y23.2926 
G01 X-7.0446 Y23.1910 
G01 X-7.1986 Y23.1126 
G01 X-7.3629 Y23.0592 
G01 X-7.5336 Y23.0322 
G01 X-7.7064 Y23.0322 
G01 X-7.8771 Y23.0592 
G01 X-8.0414 Y23.1126 
G01 X-8.1954 Y23.1910 
G01 X-8.3352 Y23.2926 
G01 X-8.4574 Y23.4148 
G01 X-8.5590 Y23.5546 
G01 X-8.6374 Y23.7086 
G01 X-8.6908 Y23.8729 
G01 X-8.7178 Y24.0436 
G01 X-8.7178 Y24.2164 
G01 X-8.6908 Y24.3871 
G01 X-8.6374 Y24.5514 
G01 X-8.5590 Y24.7054 
G01 X-8.4574 Y24.8452 
G01 X-8.3352 Y24.9674 
G01 X-8.1954 Y25.0690 
G01 X-8.1114 Y25.1117 
G01 X-8.1114 Y48.5483 
G01 X-8.1954 Y48.5910 
G01 X-8.3352 Y48.6926 
G01 X-8.4574 Y48.8148 
G01 X-8.5590 Y48.9546 
G01 X-8.6374 Y49.1086 
G01 X-8.6908 Y49.2729 
G01 X-8.7178 Y49.4436 
G01 X-8.7178 Y49.6164 
G01 X-8.6908 Y49.7871 
G01 X-8.6374 Y49.9514 
G01 X-8.5590 Y50.1054 
G01 X-8.4574 Y50.2452 
G01 X-8.3654 Y50.3371 
G01 X-8.3654 Y53.8984 
G01 X-18.9996 Y64.5326 
G01 X-68.1224 Y64.5326 
G01 X-71.3483 Y61.3067 
G01 X-71.3192 Y61.2171 
G01 X-71.2922 Y61.0464 
G01 X-71.2922 Y60.8736 
G01 X-71.3192 Y60.7029 
G01 X-71.3726 Y60.5386 
G01 X-71.4510 Y60.3846 
G01 X-71.5526 Y60.2448 
G01 X-71.6748 Y60.1226 
G01 X-71.8146 Y60.0210 
G01 X-71.9686 Y59.9426 
G01 X-72.1329 Y59.8892 
G01 X-72.3036 Y59.8622 
G01 X-72.4764 Y59.8622 
G01 X-72.6471 Y59.8892 
G01 X-72.8114 Y59.9426 
G01 X-72.9654 Y60.0210 
G01 X-73.1052 Y60.1226 
G01 X-73.2274 Y60.2448 
G01 X-73.3290 Y60.3846 
G01 X-73.3717 Y60.4686 
G01 X-78.5364 Y60.4686 
G01 X-82.5732 Y56.4318 
G01 X-82.5583 Y56.4026 
G01 X-82.4921 Y56.1988 
G01 X-82.4586 Y55.9871 
G01 X-82.4586 Y55.7729 
G01 X-82.4656 Y55.7286 
G01 X-79.8352 Y53.0982 
G01 X-79.7438 Y53.0068 
G01 X-77.0098 Y50.2728 
G01 X-76.9152 Y50.3674 
G01 X-76.7754 Y50.4690 
G01 X-76.6214 Y50.5474 
G01 X-76.4571 Y50.6008 
G01 X-76.2864 Y50.6278 
G01 X-76.1136 Y50.6278 
G01 X-75.9429 Y50.6008 
G01 X-75.7786 Y50.5474 
G01 X-75.6246 Y50.4690 
G01 X-75.4848 Y50.3674 
G01 X-75.3626 Y50.2452 
G01 X-75.2610 Y50.1054 
G01 X-75.1826 Y49.9514 
G01 X-75.1292 Y49.7871 
G01 X-75.1022 Y49.6164 
G01 X-75.1022 Y49.4436 
G01 X-75.1292 Y49.2729 
G01 X-75.1826 Y49.1086 
G01 X-75.2610 Y48.9546 
G01 X-75.3626 Y48.8148 
G01 X-75.4848 Y48.6926 
G01 X-75.6246 Y48.5910 
G01 X-75.7786 Y48.5126 
G01 X-75.9429 Y48.4592 
G01 X-76.1136 Y48.4322 
G01 X-76.2864 Y48.4322 
G01 X-76.4571 Y48.4592 
G01 X-76.6214 Y48.5126 
G01 X-76.7754 Y48.5910 
G01 X-76.9152 Y48.6926 
G01 X-77.0374 Y48.8148 
G01 X-77.1390 Y48.9546 
G01 X-77.2174 Y49.1086 
G01 X-77.2638 Y49.1367 
G01 X-80.1370 Y52.0100 
G01 X-86.4682 Y45.6788 
G01 X-86.4271 Y45.5982 
G01 X-86.3640 Y45.4039 
G01 X-86.3321 Y45.2022 
G01 X-86.3321 Y44.9978 
G01 X-86.3640 Y44.7961 
G01 X-86.4271 Y44.6018 
G01 X-86.5199 Y44.4197 
G01 X-86.6400 Y44.2544 
G01 X-86.7844 Y44.1100 
G01 X-86.9497 Y43.9899 
G01 X-87.1318 Y43.8972 
G01 X-87.3261 Y43.8340 
G01 X-87.5278 Y43.8021 
G01 X-87.7322 Y43.8021 
G01 X-87.9339 Y43.8340 
G01 X-88.1282 Y43.8972 
G01 X-88.3103 Y43.9899 
G01 X-88.4755 Y44.1100 
G01 X-88.6200 Y44.2544 
G01 X-88.7401 Y44.4197 
G01 X-88.8328 Y44.6018 
G01 X-88.8960 Y44.7961 
G01 X-88.9279 Y44.9978 
G00 Z2.5400  
G00 X-88.8294 Y30.3856 
G01 Z-0.1778 F254   
G01 X-88.8294 Y30.5744 F508   
G01 X-88.7999 Y30.7609 
G01 X-88.7416 Y30.9404 
G01 X-88.6559 Y31.1086 
G01 X-88.5449 Y31.2614 
G01 X-88.4114 Y31.3949 
G01 X-88.2586 Y31.5059 
G01 X-88.0904 Y31.5916 
G01 X-87.9109 Y31.6499 
G01 X-87.7244 Y31.6794 
G01 X-87.5356 Y31.6794 
G01 X-87.3491 Y31.6499 
G01 X-87.1696 Y31.5916 
G01 X-87.0014 Y31.5059 
G01 X-86.8486 Y31.3949 
G01 X-86.7151 Y31.2614 
G01 X-86.6041 Y31.1086 
G01 X-86.5184 Y30.9404 
G01 X-86.4601 Y30.7609 
G01 X-86.4306 Y30.5744 
G01 X-86.4306 Y30.3856 
G01 X-86.4601 Y30.1991 
G01 X-86.5184 Y30.0196 
G01 X-86.6041 Y29.8514 
G01 X-86.7151 Y29.6986 
G01 X-86.8486 Y29.5651 
G01 X-87.0014 Y29.4541 
G01 X-87.1696 Y29.3684 
G01 X-87.3491 Y29.3101 
G01 X-87.5356 Y29.2806 
G01 X-87.7244 Y29.2806 
G01 X-87.9109 Y29.3101 
G01 X-88.0573 Y29.3577 
G01 X-90.9486 Y26.4664 
G01 X-90.9486 Y19.5076 
G01 X-89.7124 Y18.2714 
G01 X-78.4517 Y18.2714 
G01 X-78.4090 Y18.3554 
G01 X-78.3074 Y18.4952 
G01 X-78.1852 Y18.6174 
G01 X-78.0454 Y18.7190 
G01 X-77.8914 Y18.7974 
G01 X-77.7271 Y18.8508 
G01 X-77.5564 Y18.8778 
G01 X-77.3836 Y18.8778 
G01 X-77.2129 Y18.8508 
G01 X-77.0486 Y18.7974 
G01 X-76.8946 Y18.7190 
G01 X-76.7548 Y18.6174 
G01 X-76.6326 Y18.4952 
G01 X-76.5310 Y18.3554 
G01 X-76.4526 Y18.2014 
G01 X-76.3992 Y18.0371 
G01 X-76.3722 Y17.8664 
G01 X-76.3722 Y17.6936 
G01 X-76.3992 Y17.5229 
G01 X-76.4526 Y17.3586 
G01 X-76.5310 Y17.2046 
G01 X-76.6326 Y17.0648 
G01 X-76.7548 Y16.9426 
G01 X-76.8946 Y16.8410 
G01 X-77.0486 Y16.7626 
G01 X-77.2129 Y16.7092 
G01 X-77.3836 Y16.6822 
G01 X-77.5564 Y16.6822 
G01 X-77.7271 Y16.7092 
G01 X-77.8914 Y16.7626 
G01 X-78.0454 Y16.8410 
G01 X-78.1852 Y16.9426 
G01 X-78.3074 Y17.0648 
G01 X-78.4090 Y17.2046 
G01 X-78.4517 Y17.2886 
G01 X-89.9807 Y17.2886 
G01 X-90.1057 Y17.3221 
G01 X-90.2178 Y17.3867 
G01 X-91.7418 Y18.9108 
G01 X-91.8332 Y19.0022 
G01 X-91.8979 Y19.1143 
G01 X-91.9314 Y19.2393 
G01 X-91.9314 Y26.7347 
G01 X-91.8979 Y26.8597 
G01 X-91.8332 Y26.9718 
G01 X-88.7523 Y30.0527 
G01 X-88.7999 Y30.1991 
G01 X-88.8294 Y30.3856 
G00 Z2.5400  
G00 X-48.6067 Y31.9783 
G01 Z-0.1778 F254   
G01 X-48.6631 Y31.9219 F508   
G01 X-48.5547 Y31.8866 
G01 X-48.5547 Y31.9614 
G01 X-48.6067 Y31.9783 
G00 Z2.5400  
G00 X-82.4606 Y20.7815 
G01 Z-0.1778 F254   
G01 X-82.5200 Y20.9250 F508   
G01 X-82.5732 Y20.8718 
G01 X-82.5583 Y20.8426 
G01 X-82.5007 Y20.6654 
G01 X-82.4295 Y20.6654 
G01 X-82.4606 Y20.7815 
G00 Z2.5400  
G00 X-88.9292 Y37.6590 
G01 Z-0.1778 F254   
G01 X-88.8605 Y37.4932 F508   
G01 X-88.7708 Y37.3378 
G01 X-88.6615 Y37.1954 
G01 X-88.5346 Y37.0685 
G01 X-88.3922 Y36.9592 
G01 X-88.3754 Y36.9495 
G01 X-88.3754 Y37.0373 
G01 X-88.4755 Y37.1100 
G01 X-88.6200 Y37.2544 
G01 X-88.7401 Y37.4197 
G01 X-88.8328 Y37.6018 
G01 X-88.8675 Y37.7086 
G01 X-88.9425 Y37.7086 
G01 X-88.9292 Y37.6590 
G00 Z2.5400  
G00 X-88.8675 Y38.4914 
G01 Z-0.1778 F254   
G01 X-88.8328 Y38.5982 F508   
G01 X-88.8296 Y38.6046 
G01 X-88.8814 Y38.6564 
G01 X-88.9292 Y38.5410 
G01 X-88.9425 Y38.4914 
G01 X-88.8675 Y38.4914 
G00 Z2.5400  
G00 X-85.0817 Y20.8426 
G01 Z-0.1778 F254   
G01 X-84.9844 Y21.0336 F508   
G01 X-84.8584 Y21.2069 
G01 X-84.7069 Y21.3584 
G01 X-84.5336 Y21.4844 
G01 X-84.3426 Y21.5817 
G01 X-84.1654 Y21.6393 
G01 X-84.1654 Y21.7105 
G01 X-84.2815 Y21.6794 
G01 X-84.4550 Y21.6076 
G01 X-84.6176 Y21.5137 
G01 X-84.7666 Y21.3994 
G01 X-84.8994 Y21.2666 
G01 X-85.0137 Y21.1176 
G01 X-85.1076 Y20.9550 
G01 X-85.1794 Y20.7815 
G01 X-85.2105 Y20.6654 
G01 X-85.1393 Y20.6654 
G01 X-85.0817 Y20.8426 
G00 Z2.5400  
G00 X-83.2974 Y21.5817 
G01 Z-0.1778 F254   
G01 X-83.2682 Y21.5668 F508   
G01 X-83.2150 Y21.6200 
G01 X-83.3585 Y21.6794 
G01 X-83.4746 Y21.7105 
G01 X-83.4746 Y21.6393 
G01 X-83.2974 Y21.5817 
G00 Z2.5400  
G00 X-78.5533 Y27.4913 
G01 Z-0.1778 F254   
G01 X-78.4698 Y27.3273 F508   
G01 X-78.3616 Y27.1785 
G01 X-78.2315 Y27.0484 
G01 X-78.0827 Y26.9402 
G01 X-77.9614 Y26.8784 
G01 X-77.9614 Y26.9583 
G01 X-78.0454 Y27.0010 
G01 X-78.1852 Y27.1026 
G01 X-78.3074 Y27.2248 
G01 X-78.4090 Y27.3646 
G01 X-78.4874 Y27.5186 
G01 X-78.5286 Y27.6453 
G01 X-78.6034 Y27.6453 
G01 X-78.5533 Y27.4913 
G00 Z2.5400  
G00 X-49.1516 Y33.7815 
G01 Z-0.1778 F254   
G01 X-49.2598 Y33.6327 F508   
G01 X-49.3433 Y33.4687 
G01 X-49.3934 Y33.3147 
G01 X-49.3186 Y33.3147 
G01 X-49.2774 Y33.4414 
G01 X-49.1990 Y33.5954 
G01 X-49.0974 Y33.7352 
G01 X-48.9752 Y33.8574 
G01 X-48.8354 Y33.9590 
G01 X-48.7514 Y34.0017 
G01 X-48.7514 Y34.0816 
G01 X-48.8727 Y34.0198 
G01 X-49.0215 Y33.9116 
G01 X-49.1516 Y33.7815 
G00 Z2.5400  
G00 X-49.3581 Y32.6169 
G01 Z-0.1778 F254   
G01 X-49.3017 Y32.6733 F508   
G01 X-49.3186 Y32.7253 
G01 X-49.3934 Y32.7253 
G01 X-49.3581 Y32.6169 
G00 Z2.5400  
G00 X-5.2426 Y6.7684  
G01 Z-0.1778 F254   
G01 X-5.2626 Y6.6935  F508   
G01 X-5.3014 Y6.6263  
G01 X-5.3563 Y6.5714  
G01 X-5.4235 Y6.5326  
G01 X-5.4984 Y6.5126  
G01 X-94.5016 Y6.5126  
G01 X-94.5765 Y6.5326  
G01 X-94.6437 Y6.5714  
G01 X-94.6986 Y6.6263  
G01 X-94.7374 Y6.6935  
G01 X-94.7574 Y6.7684  
G01 X-94.7574 Y66.8816 
G01 X-94.7374 Y66.9565 
G01 X-94.6986 Y67.0237 
G01 X-94.6437 Y67.0786 
G01 X-94.5765 Y67.1174 
G01 X-94.5016 Y67.1374 
G01 X-5.4984 Y67.1374 
G01 X-5.4235 Y67.1174 
G01 X-5.3563 Y67.0786 
G01 X-5.3014 Y67.0237 
G01 X-5.2626 Y66.9565 
G01 X-5.2426 Y66.8816 
G01 X-5.2426 Y66.8040 
G01 X-5.2426 Y6.7684  
G00 Z2.5400  
G00 X-35.1225 Y57.4453 
G01 Z-0.1778 F254   
G01 X-35.2647 Y57.5875 F508   
G01 X-35.3829 Y57.7503 
G01 X-35.4742 Y57.9295 
G01 X-35.5364 Y58.1208 
